; LightBurn 1.2.04
; GRBL device profile, absolute coords
; Bounds: X41.05 Y34.52 to X158.95 Y196.86
G00 G17 G40 G21 G54
G90
M4
; Scan @ 16 mm/sec, 100% power
M8
G0 X49.661Y36.318
; Layer C07
G91
G1 X0.24F960S0
G1 X100.204S1000
G1 X0.24S0
G1 Y0.1S0
G1 X-0.24S0
G1 X-100.204S1000
G1 X-0.24S0
G1 Y0.1S0
G1 X0.241S0
G1 X100.204S1000
G1 X0.24S0
G1 Y0.1S0
G1 X-0.24S0
G1 X-100.204S1000
G1 X-0.24S0
G90
G0 X70.802Y50.136
G91
G1 X0.24S0
G1 X0.074S1000
G1 X0.24S0
G1 Y0.1S0
G1 X-0.24S0
G1 X-0.222S1000
G1 X-0.24S0
G1 X-0.147Y0.1S0
G1 X0.24S0
G1 X0.369S1000
G1 X0.24S0
G1 Y0.1S0
G1 X-0.24S0
G1 X-0.517S1000
G1 X-0.24S0
G1 X-0.148Y0.1S0
G1 X0.24S0
G1 X0.665S1000
G1 X0.24S0
G1 Y0.1S0
G1 X-0.24S0
G1 X-0.812S1000
G1 X-0.24S0
G1 X-0.148Y0.1S0
G1 X0.24S0
G1 X0.96S1000
G1 X0.24S0
G1 Y0.1S0
G1 X-0.24S0
G1 X-1.107S1000
G1 X-0.24S0
G1 X-0.148Y0.1S0
G1 X0.24S0
G1 X1.255S1000
G1 X0.24S0
G1 Y0.1S0
G1 X-0.24S0
G1 X-1.402S1000
G1 X-0.24S0
G1 X-0.148Y0.1S0
G1 X0.24S0
G1 X1.55S1000
G1 X0.24S0
G1 Y0.1S0
G1 X-0.24S0
G1 X-1.698S1000
G1 X-0.24S0
G1 X-0.147Y0.1S0
G1 X0.24S0
G1 X1.845S1000
G1 X0.24S0
G1 Y0.1S0
G1 X-0.24S0
G1 X-1.993S1000
G1 X-0.24S0
G1 X-0.147Y0.1S0
G1 X0.24S0
G1 X2.14S1000
G1 X0.24S0
G1 Y0.1S0
G1 X-0.24S0
G1 X-2.288S1000
G1 X-0.24S0
G1 X-0.148Y0.1S0
G1 X0.24S0
G1 X2.436S1000
G1 X0.24S0
G1 Y0.1S0
G1 X-0.24S0
G1 X-2.583S1000
G1 X-0.24S0
G1 X-0.148Y0.1S0
G1 X0.24S0
G1 X2.731S1000
G1 X0.24S0
G1 Y0.1S0
G1 X-0.24S0
G1 X-2.878S1000
G1 X-0.24S0
G1 X-0.148Y0.1S0
G1 X0.24S0
G1 X3.026S1000
G1 X0.24S0
G1 Y0.1S0
G1 X-0.24S0
G1 X-3.174S1000
G1 X-0.24S0
G1 X-0.147Y0.1S0
G1 X0.24S0
G1 X3.321S1000
G1 X0.24S0
G1 Y0.1S0
G1 X-0.24S0
G1 X-3.469S1000
G1 X-0.24S0
G1 X-0.147Y0.1S0
G1 X0.24S0
G1 X3.616S1000
G1 X0.24S0
G1 Y0.1S0
G1 X-0.24S0
G1 X-3.764S1000
G1 X-0.24S0
G1 X-0.148Y0.1S0
G1 X0.24S0
G1 X3.912S1000
G1 X0.24S0
G1 Y0.1S0
G1 X-0.24S0
G1 X-4.059S1000
G1 X-0.24S0
G1 X-0.148Y0.1S0
G1 X0.24S0
G1 X4.207S1000
G1 X0.24S0
G1 Y0.1S0
G1 X-0.24S0
G1 X-4.354S1000
G1 X-0.24S0
G1 X-0.148Y0.1S0
G1 X0.24S0
G1 X4.502S1000
G1 X0.24S0
G1 Y0.1S0
G1 X-0.24S0
G1 X-4.649S1000
G1 X-0.24S0
G1 X-0.148Y0.1S0
G1 X0.24S0
G1 X4.797S1000
G1 X0.24S0
G1 Y0.1S0
G1 X-0.24S0
G1 X-4.945S1000
G1 X-0.24S0
G1 X-0.147Y0.1S0
G1 X0.24S0
G1 X5.092S1000
G1 X0.24S0
G1 Y0.1S0
G1 X-0.24S0
G1 X-5.24S1000
G1 X-0.24S0
G1 X-0.147Y0.1S0
G1 X0.24S0
G1 X5.387S1000
G1 X0.24S0
G1 Y0.1S0
G1 X-0.24S0
G1 X-5.535S1000
G1 X-0.24S0
G1 X-0.148Y0.1S0
G1 X0.24S0
G1 X5.683S1000
G1 X0.24S0
G1 Y0.1S0
G1 X-0.24S0
G1 X-5.83S1000
G1 X-0.24S0
G1 X-0.148Y0.1S0
G1 X0.24S0
G1 X5.978S1000
G1 X0.24S0
G1 Y0.1S0
G1 X-0.24S0
G1 X-6.125S1000
G1 X-0.24S0
G1 X-0.148Y0.1S0
G1 X0.24S0
G1 X6.273S1000
G1 X0.24S0
G1 Y0.1S0
G1 X-0.24S0
G1 X-6.421S1000
G1 X-0.24S0
G1 X-0.147Y0.1S0
G1 X0.24S0
G1 X6.568S1000
G1 X0.24S0
G1 Y0.1S0
G1 X-0.24S0
G1 X-6.716S1000
G1 X-0.24S0
G1 X-0.147Y0.1S0
G1 X0.24S0
G1 X6.863S1000
G1 X0.24S0
G1 Y0.1S0
G1 X-0.24S0
G1 X-7.011S1000
G1 X-0.24S0
G1 X-0.147Y0.1S0
G1 X0.24S0
G1 X7.158S1000
G1 X0.24S0
G1 Y0.1S0
G1 X-0.24S0
G1 X-7.306S1000
G1 X-0.24S0
G1 X-0.148Y0.1S0
G1 X0.24S0
G1 X7.454S1000
G1 X0.24S0
G1 Y0.1S0
G1 X-0.24S0
G1 X-7.601S1000
G1 X-0.24S0
G1 X-0.148Y0.1S0
G1 X0.24S0
G1 X7.749S1000
G1 X0.24S0
G1 Y0.1S0
G1 X-0.24S0
G1 X-7.896S1000
G1 X-0.24S0
G1 X-0.148Y0.1S0
G1 X0.24S0
G1 X8.044S1000
G1 X0.24S0
G1 Y0.1S0
G1 X-0.24S0
G1 X-8.192S1000
G1 X-0.24S0
G1 X-0.147Y0.1S0
G1 X0.24S0
G1 X8.339S1000
G1 X0.24S0
G1 Y0.1S0
G1 X-0.24S0
G1 X-8.487S1000
G1 X-0.24S0
G1 X-0.147Y0.1S0
G1 X0.24S0
G1 X8.634S1000
G1 X0.24S0
G1 Y0.1S0
G1 X-0.24S0
G1 X-8.782S1000
G1 X-0.24S0
G1 X-0.148Y0.1S0
G1 X0.24S0
G1 X8.93S1000
G1 X0.24S0
G1 Y0.1S0
G1 X-0.24S0
G1 X-9.077S1000
G1 X-0.24S0
G1 X0.04Y0.1S0
G1 X0.24S0
G1 X9.037S1000
G1 X0.24S0
G1 Y0.1S0
G1 X-0.24S0
G1 X-8.88S1000
G1 X-0.24S0
G1 X0.157Y0.1S0
G1 X0.24S0
G1 X8.723S1000
G1 X0.24S0
G1 Y0.1S0
G1 X-0.24S0
G1 X-8.565S1000
G1 X-0.24S0
G1 X0.157Y0.1S0
G1 X0.24S0
G1 X8.408S1000
G1 X0.24S0
G1 Y0.1S0
G1 X-0.24S0
G1 X-8.251S1000
G1 X-0.24S0
G1 X0.157Y0.1S0
G1 X0.24S0
G1 X8.094S1000
G1 X0.24S0
G1 Y0.1S0
G1 X-0.24S0
G1 X-7.937S1000
G1 X-0.24S0
G1 X0.157Y0.1S0
G1 X0.24S0
G1 X7.78S1000
G1 X0.24S0
G1 Y0.1S0
G1 X-0.24S0
G1 X-7.622S1000
G1 X-0.24S0
G1 X0.157Y0.1S0
G1 X0.24S0
G1 X7.465S1000
G1 X0.24S0
G1 Y0.1S0
G1 X-0.24S0
G1 X-7.308S1000
G1 X-0.24S0
G1 X0.157Y0.1S0
G1 X0.24S0
G1 X7.151S1000
G1 X0.24S0
G1 Y0.1S0
G1 X-0.24S0
G1 X-6.994S1000
G1 X-0.24S0
G1 X0.157Y0.1S0
G1 X0.24S0
G1 X6.837S1000
G1 X0.24S0
G1 Y0.1S0
G1 X-0.24S0
G1 X-6.68S1000
G1 X-0.24S0
G1 X0.158Y0.1S0
G1 X0.24S0
G1 X6.522S1000
G1 X0.24S0
G1 Y0.1S0
G1 X-0.24S0
G1 X-6.365S1000
G1 X-0.24S0
G1 X0.157Y0.1S0
G1 X0.24S0
G1 X6.208S1000
G1 X0.24S0
G1 Y0.1S0
G1 X-0.24S0
G1 X-6.051S1000
G1 X-0.24S0
G1 X0.157Y0.1S0
G1 X0.24S0
G1 X5.894S1000
G1 X0.24S0
G1 Y0.1S0
G1 X-0.24S0
G1 X-5.737S1000
G1 X-0.24S0
G1 X0.158Y0.1S0
G1 X0.24S0
G1 X5.579S1000
G1 X0.24S0
G1 Y0.1S0
G1 X-0.24S0
G1 X-5.422S1000
G1 X-0.24S0
G1 X0.157Y0.1S0
G1 X0.24S0
G1 X5.265S1000
G1 X0.24S0
G1 Y0.1S0
G1 X-0.24S0
G1 X-5.108S1000
G1 X-0.24S0
G1 X0.157Y0.1S0
G1 X0.24S0
G1 X4.951S1000
G1 X0.24S0
G1 Y0.1S0
G1 X-0.24S0
G1 X-4.794S1000
G1 X-0.24S0
G1 X0.158Y0.1S0
G1 X0.24S0
G1 X4.636S1000
G1 X0.24S0
G1 Y0.1S0
G1 X-0.24S0
G1 X-4.479S1000
G1 X-0.24S0
G1 X0.157Y0.1S0
G1 X0.24S0
G1 X4.322S1000
G1 X0.24S0
G1 Y0.1S0
G1 X-0.24S0
G1 X-4.165S1000
G1 X-0.24S0
G1 X0.157Y0.1S0
G1 X0.24S0
G1 X4.008S1000
G1 X0.24S0
G1 Y0.1S0
G1 X-0.24S0
G1 X-3.851S1000
G1 X-0.24S0
G1 X0.157Y0.1S0
G1 X0.24S0
G1 X3.694S1000
G1 X0.24S0
G1 Y0.1S0
G1 X-0.24S0
G1 X-3.536S1000
G1 X-0.24S0
G1 X0.157Y0.1S0
G1 X0.24S0
G1 X3.379S1000
G1 X0.24S0
G1 Y0.1S0
G1 X-0.24S0
G1 X-3.222S1000
G1 X-0.24S0
G1 X0.157Y0.1S0
G1 X0.24S0
G1 X3.065S1000
G1 X0.24S0
G1 Y0.1S0
G1 X-0.24S0
G1 X-2.908S1000
G1 X-0.24S0
G1 X0.157Y0.1S0
G1 X0.24S0
G1 X2.751S1000
G1 X0.24S0
G1 Y0.1S0
G1 X-0.24S0
G1 X-2.593S1000
G1 X-0.24S0
G1 X0.157Y0.1S0
G1 X0.24S0
G1 X2.436S1000
G1 X0.24S0
G1 Y0.1S0
G1 X-0.24S0
G1 X-2.279S1000
G1 X-0.24S0
G1 X0.157Y0.1S0
G1 X0.24S0
G1 X2.122S1000
G1 X0.24S0
G1 Y0.1S0
G1 X-0.24S0
G1 X-1.965S1000
G1 X-0.24S0
G1 X0.157Y0.1S0
G1 X0.24S0
G1 X1.808S1000
G1 X0.24S0
G1 Y0.1S0
G1 X-0.24S0
G1 X-1.651S1000
G1 X-0.24S0
G1 X0.158Y0.1S0
G1 X0.24S0
G1 X1.493S1000
G1 X0.24S0
G1 Y0.1S0
G1 X-0.24S0
G1 X-1.336S1000
G1 X-0.24S0
G1 X0.157Y0.1S0
G1 X0.24S0
G1 X1.179S1000
G1 X0.24S0
G1 Y0.1S0
G1 X-0.24S0
G1 X-1.022S1000
G1 X-0.24S0
G1 X0.157Y0.1S0
G1 X0.24S0
G1 X0.865S1000
G1 X0.24S0
G1 Y0.1S0
G1 X-0.24S0
G1 X-0.708S1000
G1 X-0.24S0
G1 X0.158Y0.1S0
G1 X0.24S0
G1 X0.55S1000
G1 X0.24S0
G1 Y0.1S0
G1 X-0.24S0
G1 X-0.393S1000
G1 X-0.24S0
G1 X0.157Y0.1S0
G1 X0.24S0
G1 X0.236S1000
G1 X0.24S0
G1 Y0.1S0
G1 X-0.24S0
G1 X-0.079S1000
G1 X-0.24S0
G90
G0 X83.871Y72.764
G91
G1 X0.24S0
G1 X1.355S1000
G1 X10.107S0
G1 X2.116S1000
G1 X0.24S0
G1 Y0.1S0
G1 X-0.24S0
G1 X-2.116S1000
G1 X-9.741S0
G1 X-2.134S1000
G1 X-0.24S0
G1 X-0.278Y0.1S0
G1 X0.24S0
G1 X2.614S1000
G1 X9.539S0
G1 X2.116S1000
G1 X0.24S0
G1 Y0.1S0
G1 X-0.24S0
G1 X-2.116S1000
G1 X-9.384S0
G1 X-2.99S1000
G1 X-0.24S0
G1 X-0.204Y0.1S0
G1 X0.24S0
G1 X3.319S1000
G1 X9.259S0
G1 X2.116S1000
G1 X0.24S0
G1 Y0.1S0
G1 X-0.24S0
G1 X-2.116S1000
G1 X-9.158S0
G1 X-3.435S1000
G1 X-0.24S0
G1 X0.048Y0.1S0
G1 X0.24S0
G1 X3.488S1000
G1 X9.057S0
G1 X2.116S1000
G1 X0.24S0
G1 Y0.1S0
G1 X-0.24S0
G1 X-2.116S1000
G1 X-8.967S0
G1 X-3.529S1000
G1 X-0.24S0
G1 X0.049Y0.1S0
G1 X0.24S0
G1 X3.551S1000
G1 X8.896S0
G1 X2.116S1000
G1 X0.24S0
G1 Y0.1S0
G1 X-0.24S0
G1 X-2.116S1000
G1 X-8.824S0
G1 X-3.575S1000
G1 X-0.24S0
G1 X0.049Y0.1S0
G1 X0.24S0
G1 X3.598S1000
G1 X8.752S0
G1 X2.116S1000
G1 X0.24S0
G1 Y0.1S0
G1 X-0.24S0
G1 X-2.116S1000
G1 X-8.695S0
G1 X-3.607S1000
G1 X-0.24S0
G1 X0.049Y0.1S0
G1 X0.24S0
G1 X3.613S1000
G1 X8.64S0
G1 X2.116S1000
G1 X0.24S0
G1 Y0.1S0
G1 X-0.24S0
G1 X-2.116S1000
G1 X-8.584S0
G1 X-3.621S1000
G1 X-0.24S0
G1 X0.049Y0.1S0
G1 X0.24S0
G1 X3.627S1000
G1 X8.529S0
G1 X2.116S1000
G1 X0.24S0
G1 Y0.1S0
G1 X-0.24S0
G1 X-2.116S1000
G1 X-8.483S0
G1 X-3.625S1000
G1 X-0.24S0
G1 X0.049Y0.1S0
G1 X0.24S0
G1 X3.619S1000
G1 X8.44S0
G1 X2.116S1000
G1 X0.24S0
G1 Y0.1S0
G1 X-0.24S0
G1 X-2.116S1000
G1 X-8.397S0
G1 X-2.22S1000
G1 X-0.887S0
G1 X-0.507S1000
G1 X-0.24S0
G1 X0.049Y0.1S0
G1 X0.24S0
G1 X0.215S1000
G1 X1.264S0
G1 X2.129S1000
G1 X8.354S0
G1 X2.116S1000
G1 X0.24S0
G1 Y0.1S0
G1 X-0.24S0
G1 X-2.116S1000
G1 X-8.311S0
G1 X-2.08S1000
G1 X-0.24S0
G1 X-16.715Y0.1S0
G1 X0.24S0
G1 X1.483S1000
G1 X15.298S0
G1 X2.054S1000
G1 X8.271S0
G1 X2.116S1000
G1 X1.842S0
G1 X0.94S1000
G1 X11.936S0
G1 X1.01S1000
G1 X16.072S0
G1 X0.923S1000
G1 X0.24S0
G1 X0.46Y0.1S0
G1 X-0.24S0
G1 X-1.883S1000
G1 X-15.054S0
G1 X-2.026S1000
G1 X-10.933S0
G1 X-1.913S1000
G1 X-1.374S0
G1 X-2.116S1000
G1 X-8.231S0
G1 X-2.056S1000
G1 X-14.858S0
G1 X-2.444S1000
G1 X-0.24S0
G1 X-17.428Y0.1S0
G1 X0.24S0
G1 X2.047S1000
G1 X7.129S0
G1 X2.116S1000
G1 X5.828S0
G1 X3.054S1000
G1 X4.068S0
G1 X2.116S1000
G1 X2.621S0
G1 X2.422S1000
G1 X3.288S0
G1 X2.136S1000
G1 X8.192S0
G1 X2.116S1000
G1 X1.104S0
G1 X2.482S1000
G1 X3.697S0
G1 X2.116S1000
G1 X4.557S0
G1 X2.567S1000
G1 X0.952S0
G1 X2.047S1000
G1 X1.573S0
G1 X6.489S1000
G1 X3.418S0
G1 X2.445S1000
G1 X1.127S0
G1 X2.116S1000
G1 X1.894S0
G1 X2.117S1000
G1 X2.603S0
G1 X2.117S1000
G1 X1.935S0
G1 X2.117S1000
G1 X1.991S0
G1 X2.116S1000
G1 X2.604S0
G1 X2.117S1000
G1 X0.24S0
G1 Y0.1S0
G1 X-0.24S0
G1 X-2.117S1000
G1 X-2.604S0
G1 X-2.116S1000
G1 X-1.991S0
G1 X-2.117S1000
G1 X-1.935S0
G1 X-2.117S1000
G1 X-2.603S0
G1 X-2.117S1000
G1 X-1.894S0
G1 X-2.116S1000
G1 X-0.927S0
G1 X-2.872S1000
G1 X-3.191S0
G1 X-6.489S1000
G1 X-1.573S0
G1 X-2.047S1000
G1 X-0.754S0
G1 X-2.97S1000
G1 X-4.352S0
G1 X-2.116S1000
G1 X-3.47S0
G1 X-2.915S1000
G1 X-0.898S0
G1 X-2.116S1000
G1 X-8.153S0
G1 X-2.216S1000
G1 X-3.315S0
G1 X-2.421S1000
G1 X-2.554S0
G1 X-2.116S1000
G1 X-3.82S0
G1 X-3.544S1000
G1 X-5.586S0
G1 X-2.116S1000
G1 X-7.129S0
G1 X-2.047S1000
G1 X-0.24S0
G1 Y0.1S0
G1 X0.24S0
G1 X2.047S1000
G1 X7.129S0
G1 X2.116S1000
G1 X5.37S0
G1 X3.98S1000
G1 X3.6S0
G1 X2.116S1000
G1 X2.487S0
G1 X2.42S1000
G1 X3.342S0
G1 X2.296S1000
G1 X8.114S0
G1 X2.116S1000
G1 X0.741S0
G1 X3.264S1000
G1 X3.278S0
G1 X2.116S1000
G1 X4.184S0
G1 X3.309S1000
G1 X0.583S0
G1 X2.047S1000
G1 X1.573S0
G1 X6.489S1000
G1 X2.998S0
G1 X3.216S1000
G1 X0.776S0
G1 X2.116S1000
G1 X1.894S0
G1 X2.117S1000
G1 X2.603S0
G1 X2.117S1000
G1 X1.935S0
G1 X2.117S1000
G1 X1.991S0
G1 X2.116S1000
G1 X2.604S0
G1 X2.117S1000
G1 X0.24S0
G1 Y0.1S0
G1 X-0.24S0
G1 X-2.117S1000
G1 X-2.604S0
G1 X-2.116S1000
G1 X-1.991S0
G1 X-2.117S1000
G1 X-1.935S0
G1 X-2.117S1000
G1 X-2.603S0
G1 X-2.117S1000
G1 X-1.894S0
G1 X-2.116S1000
G1 X-0.634S0
G1 X-3.531S1000
G1 X-2.825S0
G1 X-6.489S1000
G1 X-1.573S0
G1 X-2.047S1000
G1 X-0.428S0
G1 X-3.602S1000
G1 X-4.046S0
G1 X-2.116S1000
G1 X-3.107S0
G1 X-3.581S1000
G1 X-0.595S0
G1 X-2.116S1000
G1 X-8.074S0
G1 X-2.376S1000
G1 X-3.37S0
G1 X-2.419S1000
G1 X-2.42S0
G1 X-2.116S1000
G1 X-3.421S0
G1 X-4.34S1000
G1 X-5.189S0
G1 X-2.116S1000
G1 X-7.129S0
G1 X-2.047S1000
G1 X-0.24S0
G1 Y0.1S0
G1 X0.24S0
G1 X2.047S1000
G1 X7.129S0
G1 X2.116S1000
G1 X5.021S0
G1 X4.68S1000
G1 X3.249S0
G1 X2.116S1000
G1 X2.353S0
G1 X2.418S1000
G1 X3.397S0
G1 X2.456S1000
G1 X8.035S0
G1 X2.116S1000
G1 X0.461S0
G1 X3.852S1000
G1 X2.97S0
G1 X2.116S1000
G1 X3.927S0
G1 X3.848S1000
G1 X0.301S0
G1 X2.047S1000
G1 X1.573S0
G1 X6.489S1000
G1 X2.686S0
G1 X3.795S1000
G1 X0.509S0
G1 X2.116S1000
G1 X1.894S0
G1 X2.117S1000
G1 X2.603S0
G1 X2.117S1000
G1 X1.935S0
G1 X2.117S1000
G1 X1.991S0
G1 X2.116S1000
G1 X2.604S0
G1 X2.117S1000
G1 X0.24S0
G1 Y0.1S0
G1 X-0.24S0
G1 X-2.117S1000
G1 X-2.604S0
G1 X-2.116S1000
G1 X-1.991S0
G1 X-2.117S1000
G1 X-1.935S0
G1 X-2.117S1000
G1 X-2.603S0
G1 X-2.117S1000
G1 X-1.894S0
G1 X-2.116S1000
G1 X-0.393S0
G1 X-4.048S1000
G1 X-2.549S0
G1 X-6.489S1000
G1 X-1.573S0
G1 X-2.047S1000
G1 X-0.179S0
G1 X-4.077S1000
G1 X-3.82S0
G1 X-2.116S1000
G1 X-2.836S0
G1 X-4.106S1000
G1 X-0.341S0
G1 X-2.116S1000
G1 X-7.996S0
G1 X-2.536S1000
G1 X-3.424S0
G1 X-2.417S1000
G1 X-2.286S0
G1 X-2.116S1000
G1 X-3.105S0
G1 X-4.972S1000
G1 X-4.873S0
G1 X-2.116S1000
G1 X-7.129S0
G1 X-2.047S1000
G1 X-0.24S0
G1 Y0.1S0
G1 X0.24S0
G1 X2.047S1000
G1 X7.129S0
G1 X2.116S1000
G1 X4.733S0
G1 X5.255S1000
G1 X2.962S0
G1 X2.116S1000
G1 X2.22S0
G1 X2.415S1000
G1 X3.451S0
G1 X2.617S1000
G1 X7.956S0
G1 X2.116S1000
G1 X0.227S0
G1 X4.329S1000
G1 X2.727S0
G1 X2.116S1000
G1 X3.729S0
G1 X4.272S1000
G1 X0.075S0
G1 X2.047S1000
G1 X1.573S0
G1 X6.489S1000
G1 X2.437S0
G1 X4.263S1000
G1 X0.29S0
G1 X2.116S1000
G1 X1.894S0
G1 X2.117S1000
G1 X2.603S0
G1 X2.117S1000
G1 X1.935S0
G1 X2.117S1000
G1 X1.991S0
G1 X2.116S1000
G1 X2.604S0
G1 X2.117S1000
G1 X0.24S0
G1 Y0.1S0
G1 X-0.24S0
G1 X-2.117S1000
G1 X-2.604S0
G1 X-2.116S1000
G1 X-1.991S0
G1 X-2.117S1000
G1 X-1.935S0
G1 X-2.117S1000
G1 X-2.603S0
G1 X-2.117S1000
G1 X-1.894S0
G1 X-2.116S1000
G1 X-0.191S0
G1 X-4.474S1000
G1 X-2.325S0
G1 X-6.489S1000
G1 X-1.573S0
G1 X-6.474S1000
G1 X-3.649S0
G1 X-2.116S1000
G1 X-2.617S0
G1 X-4.539S1000
G1 X-0.127S0
G1 X-2.116S1000
G1 X-7.917S0
G1 X-2.697S1000
G1 X-3.478S0
G1 X-2.414S1000
G1 X-2.153S0
G1 X-2.116S1000
G1 X-2.843S0
G1 X-5.496S1000
G1 X-4.611S0
G1 X-2.116S1000
G1 X-7.129S0
G1 X-2.047S1000
G1 X-0.24S0
G1 Y0.1S0
G1 X0.24S0
G1 X2.047S1000
G1 X7.129S0
G1 X2.116S1000
G1 X4.49S0
G1 X5.735S1000
G1 X2.725S0
G1 X2.116S1000
G1 X2.086S0
G1 X2.413S1000
G1 X3.505S0
G1 X2.777S1000
G1 X7.878S0
G1 X2.116S1000
G1 X0.031S0
G1 X4.726S1000
G1 X2.526S0
G1 X2.116S1000
G1 X3.575S0
G1 X6.548S1000
G1 X1.573S0
G1 X6.489S1000
G1 X2.232S0
G1 X4.652S1000
G1 X0.106S0
G1 X2.116S1000
G1 X1.894S0
G1 X2.117S1000
G1 X2.603S0
G1 X2.117S1000
G1 X1.935S0
G1 X2.117S1000
G1 X1.991S0
G1 X2.116S1000
G1 X2.604S0
G1 X2.117S1000
G1 X0.24S0
G1 Y0.1S0
G1 X-0.24S0
G1 X-2.117S1000
G1 X-2.604S0
G1 X-2.116S1000
G1 X-1.991S0
G1 X-2.117S1000
G1 X-1.935S0
G1 X-2.117S1000
G1 X-2.603S0
G1 X-2.117S1000
G1 X-1.894S0
G1 X-2.116S1000
G1 X-0.021S0
G1 X-4.826S1000
G1 X-2.143S0
G1 X-6.489S1000
G1 X-1.573S0
G1 X-6.608S1000
G1 X-3.515S0
G1 X-2.116S1000
G1 X-2.437S0
G1 X-6.962S1000
G1 X-7.839S0
G1 X-2.857S1000
G1 X-3.532S0
G1 X-2.412S1000
G1 X-2.019S0
G1 X-2.116S1000
G1 X-2.621S0
G1 X-5.936S1000
G1 X-4.393S0
G1 X-2.116S1000
G1 X-7.129S0
G1 X-2.047S1000
G1 X-0.24S0
G1 Y0.1S0
G1 X0.24S0
G1 X2.047S1000
G1 X7.129S0
G1 X2.116S1000
G1 X4.298S0
G1 X6.129S1000
G1 X2.523S0
G1 X2.116S1000
G1 X1.952S0
G1 X2.411S1000
G1 X3.559S0
G1 X2.938S1000
G1 X7.799S0
G1 X7.046S1000
G1 X2.353S0
G1 X2.116S1000
G1 X3.456S0
G1 X6.667S1000
G1 X1.573S0
G1 X6.489S1000
G1 X2.059S0
G1 X7.047S1000
G1 X1.894S0
G1 X2.117S1000
G1 X2.603S0
G1 X2.117S1000
G1 X1.935S0
G1 X2.117S1000
G1 X1.991S0
G1 X2.116S1000
G1 X2.604S0
G1 X2.117S1000
G1 X0.24S0
G1 Y0.1S0
G1 X-0.24S0
G1 X-2.117S1000
G1 X-2.604S0
G1 X-2.116S1000
G1 X-1.991S0
G1 X-2.117S1000
G1 X-1.935S0
G1 X-2.117S1000
G1 X-2.603S0
G1 X-2.117S1000
G1 X-1.894S0
G1 X-7.12S1000
G1 X-1.986S0
G1 X-6.489S1000
G1 X-1.573S0
G1 X-6.708S1000
G1 X-3.415S0
G1 X-2.116S1000
G1 X-2.281S0
G1 X-7.118S1000
G1 X-7.76S0
G1 X-3.017S1000
G1 X-3.587S0
G1 X-2.41S1000
G1 X-1.885S0
G1 X-2.116S1000
G1 X-2.426S0
G1 X-6.316S1000
G1 X-4.208S0
G1 X-2.116S1000
G1 X-7.129S0
G1 X-2.047S1000
G1 X-0.24S0
G1 Y0.1S0
G1 X0.24S0
G1 X2.047S1000
G1 X7.129S0
G1 X2.116S1000
G1 X4.129S0
G1 X6.475S1000
G1 X2.346S0
G1 X2.116S1000
G1 X1.818S0
G1 X2.409S1000
G1 X3.614S0
G1 X3.097S1000
G1 X7.721S0
G1 X7.19S1000
G1 X2.209S0
G1 X2.116S1000
G1 X3.375S0
G1 X2.726S1000
G1 X0.787S0
G1 X3.235S1000
G1 X1.573S0
G1 X6.489S1000
G1 X1.913S0
G1 X7.193S1000
G1 X1.894S0
G1 X2.117S1000
G1 X2.603S0
G1 X2.117S1000
G1 X1.935S0
G1 X2.117S1000
G1 X1.991S0
G1 X2.116S1000
G1 X2.604S0
G1 X2.117S1000
G1 X0.24S0
G1 Y0.1S0
G1 X-0.24S0
G1 X-2.117S1000
G1 X-2.604S0
G1 X-2.116S1000
G1 X-1.991S0
G1 X-2.117S1000
G1 X-1.935S0
G1 X-2.117S1000
G1 X-2.603S0
G1 X-2.117S1000
G1 X-1.894S0
G1 X-7.258S1000
G1 X-1.848S0
G1 X-6.489S1000
G1 X-1.573S0
G1 X-2.858S1000
G1 X-1.483S0
G1 X-2.436S1000
G1 X-3.346S0
G1 X-2.116S1000
G1 X-2.145S0
G1 X-7.254S1000
G1 X-7.681S0
G1 X-3.178S1000
G1 X-3.641S0
G1 X-2.408S1000
G1 X-1.751S0
G1 X-2.116S1000
G1 X-2.265S0
G1 X-6.635S1000
G1 X-4.05S0
G1 X-2.116S1000
G1 X-7.129S0
G1 X-2.047S1000
G1 X-0.24S0
G1 Y0.1S0
G1 X0.24S0
G1 X2.047S1000
G1 X7.129S0
G1 X2.116S1000
G1 X3.978S0
G1 X6.784S1000
G1 X2.188S0
G1 X2.116S1000
G1 X1.684S0
G1 X2.407S1000
G1 X3.668S0
G1 X3.258S1000
G1 X7.642S0
G1 X7.312S1000
G1 X2.087S0
G1 X2.116S1000
G1 X3.319S0
G1 X2.295S1000
G1 X1.869S0
G1 X2.64S1000
G1 X1.646S0
G1 X6.416S1000
G1 X1.788S0
G1 X7.318S1000
G1 X1.894S0
G1 X2.117S1000
G1 X2.603S0
G1 X2.117S1000
G1 X1.935S0
G1 X2.117S1000
G1 X1.991S0
G1 X2.116S1000
G1 X2.604S0
G1 X2.117S1000
G1 X0.24S0
G1 Y0.1S0
G1 X-0.24S0
G1 X-2.117S1000
G1 X-2.604S0
G1 X-2.116S1000
G1 X-1.991S0
G1 X-2.117S1000
G1 X-1.935S0
G1 X-2.117S1000
G1 X-2.603S0
G1 X-2.117S1000
G1 X-1.894S0
G1 X-3.715S1000
G1 X-0.369S0
G1 X-3.294S1000
G1 X-1.728S0
G1 X-6.321S1000
G1 X-1.741S0
G1 X-2.48S1000
G1 X-2.141S0
G1 X-2.203S1000
G1 X-3.299S0
G1 X-2.116S1000
G1 X-2.028S0
G1 X-3.289S1000
G1 X-0.369S0
G1 X-3.713S1000
G1 X-7.603S0
G1 X-3.338S1000
G1 X-3.695S0
G1 X-2.406S1000
G1 X-1.617S0
G1 X-2.116S1000
G1 X-2.123S0
G1 X-3.151S1000
G1 X-0.547S0
G1 X-3.215S1000
G1 X-3.914S0
G1 X-2.116S1000
G1 X-7.129S0
G1 X-2.047S1000
G1 X-0.24S0
G1 Y0.1S0
G1 X0.24S0
G1 X2.047S1000
G1 X7.129S0
G1 X2.116S1000
G1 X3.85S0
G1 X2.85S1000
G1 X1.418S0
G1 X2.774S1000
G1 X2.058S0
G1 X2.116S1000
G1 X1.55S0
G1 X2.405S1000
G1 X3.722S0
G1 X3.418S1000
G1 X7.564S0
G1 X3.244S1000
G1 X1.297S0
G1 X2.881S1000
G1 X1.977S0
G1 X2.116S1000
G1 X3.284S0
G1 X2.144S1000
G1 X2.328S0
G1 X2.367S1000
G1 X1.835S0
G1 X2.417S1000
G1 X5.485S0
G1 X2.878S1000
G1 X1.297S0
G1 X3.256S1000
G1 X1.894S0
G1 X2.117S1000
G1 X2.603S0
G1 X2.117S1000
G1 X1.935S0
G1 X2.117S1000
G1 X1.991S0
G1 X2.116S1000
G1 X2.604S0
G1 X2.117S1000
G1 X0.24S0
G1 Y0.1S0
G1 X-0.24S0
G1 X-2.117S1000
G1 X-2.604S0
G1 X-2.116S1000
G1 X-1.991S0
G1 X-2.117S1000
G1 X-1.935S0
G1 X-2.117S1000
G1 X-2.603S0
G1 X-2.117S1000
G1 X-1.894S0
G1 X-3.052S1000
G1 X-1.703S0
G1 X-2.724S1000
G1 X-5.342S0
G1 X-2.417S1000
G1 X-1.93S0
G1 X-2.261S1000
G1 X-2.49S0
G1 X-2.102S1000
G1 X-3.27S0
G1 X-2.116S1000
G1 X-1.931S0
G1 X-2.721S1000
G1 X-1.706S0
G1 X-3.041S1000
G1 X-7.524S0
G1 X-3.499S1000
G1 X-3.749S0
G1 X-2.404S1000
G1 X-1.483S0
G1 X-2.116S1000
G1 X-1.995S0
G1 X-2.611S1000
G1 X-1.858S0
G1 X-2.695S1000
G1 X-3.791S0
G1 X-2.116S1000
G1 X-7.129S0
G1 X-2.047S1000
G1 X-0.24S0
G1 Y0.1S0
G1 X0.24S0
G1 X2.047S1000
G1 X7.129S0
G1 X2.116S1000
G1 X3.739S0
G1 X2.571S1000
G1 X2.201S0
G1 X2.496S1000
G1 X1.943S0
G1 X2.116S1000
G1 X1.416S0
G1 X2.403S1000
G1 X3.777S0
G1 X3.578S1000
G1 X7.485S0
G1 X2.872S1000
G1 X2.049S0
G1 X2.594S1000
G1 X1.884S0
G1 X2.116S1000
G1 X3.265S0
G1 X2.072S1000
G1 X2.593S0
G1 X2.193S1000
G1 X2.025S0
G1 X2.417S1000
G1 X5.199S0
G1 X2.603S1000
G1 X2.044S0
G1 X2.88S1000
G1 X1.894S0
G1 X2.117S1000
G1 X2.603S0
G1 X2.117S1000
G1 X1.935S0
G1 X2.117S1000
G1 X1.991S0
G1 X2.116S1000
G1 X2.604S0
G1 X2.117S1000
G1 X0.24S0
G1 Y0.1S0
G1 X-0.24S0
G1 X-2.117S1000
G1 X-2.604S0
G1 X-2.116S1000
G1 X-1.991S0
G1 X-2.117S1000
G1 X-1.935S0
G1 X-2.117S1000
G1 X-2.603S0
G1 X-2.117S1000
G1 X-1.894S0
G1 X-2.764S1000
G1 X-2.279S0
G1 X-2.528S1000
G1 X-5.06S0
G1 X-2.417S1000
G1 X-2.12S0
G1 X-2.126S1000
G1 X-2.679S0
G1 X-2.057S1000
G1 X-3.261S0
G1 X-2.116S1000
G1 X-1.841S0
G1 X-2.517S1000
G1 X-2.287S0
G1 X-2.754S1000
G1 X-7.446S0
G1 X-3.658S1000
G1 X-3.804S0
G1 X-2.402S1000
G1 X-1.349S0
G1 X-2.116S1000
G1 X-1.891S0
G1 X-2.414S1000
G1 X-2.471S0
G1 X-2.487S1000
G1 X-3.687S0
G1 X-2.116S1000
G1 X-7.129S0
G1 X-2.047S1000
G1 X-0.24S0
G1 X-4.784Y0.1S0
G1 X0.24S0
G1 X8.14S1000
G1 X5.82S0
G1 X2.116S1000
G1 X3.639S0
G1 X2.416S1000
G1 X2.702S0
G1 X2.354S1000
G1 X1.839S0
G1 X2.116S1000
G1 X1.282S0
G1 X2.401S1000
G1 X3.831S0
G1 X3.739S1000
G1 X7.406S0
G1 X2.635S1000
G1 X2.526S0
G1 X2.432S1000
G1 X1.806S0
G1 X2.116S1000
G1 X3.259S0
G1 X2.049S1000
G1 X2.728S0
G1 X2.087S1000
G1 X2.214S0
G1 X2.418S1000
G1 X4.931S0
G1 X2.443S1000
G1 X2.513S0
G1 X2.649S1000
G1 X1.894S0
G1 X2.117S1000
G1 X2.603S0
G1 X2.117S1000
G1 X1.935S0
G1 X2.117S1000
G1 X1.991S0
G1 X2.116S1000
G1 X2.604S0
G1 X2.117S1000
G1 X0.24S0
G1 Y0.1S0
G1 X-0.24S0
G1 X-2.117S1000
G1 X-2.604S0
G1 X-2.116S1000
G1 X-1.991S0
G1 X-2.117S1000
G1 X-1.935S0
G1 X-2.117S1000
G1 X-2.603S0
G1 X-2.117S1000
G1 X-1.894S0
G1 X-2.566S1000
G1 X-2.68S0
G1 X-2.393S1000
G1 X-4.802S0
G1 X-2.418S1000
G1 X-2.309S0
G1 X-2.051S1000
G1 X-2.762S0
G1 X-2.046S1000
G1 X-3.264S0
G1 X-2.116S1000
G1 X-1.77S0
G1 X-2.384S1000
G1 X-2.691S0
G1 X-2.554S1000
G1 X-7.367S0
G1 X-3.819S1000
G1 X-3.858S0
G1 X-2.4S1000
G1 X-1.183S0
G1 X-2.148S1000
G1 X-1.8S0
G1 X-2.301S1000
G1 X-2.9S0
G1 X-2.349S1000
G1 X-3.6S0
G1 X-2.116S1000
G1 X-5.82S0
G1 X-8.164S1000
G1 X-0.24S0
G1 X-0.024Y0.1S0
G1 X0.24S0
G1 X8.188S1000
G1 X5.82S0
G1 X2.116S1000
G1 X3.561S0
G1 X2.309S1000
G1 X3.056S0
G1 X2.263S1000
G1 X1.761S0
G1 X2.247S1000
G1 X1.018S0
G1 X2.398S1000
G1 X3.885S0
G1 X1.958S1000
G1 X0.018S0
G1 X1.923S1000
G1 X7.328S0
G1 X2.479S1000
G1 X2.843S0
G1 X2.343S1000
G1 X1.734S0
G1 X2.116S1000
G1 X3.269S0
G1 X2.052S1000
G1 X2.774S0
G1 X2.028S1000
G1 X2.404S0
G1 X2.418S1000
G1 X4.673S0
G1 X2.349S1000
G1 X2.835S0
G1 X2.489S1000
G1 X1.894S0
G1 X2.117S1000
G1 X2.603S0
G1 X2.117S1000
G1 X1.935S0
G1 X2.117S1000
G1 X1.991S0
G1 X2.116S1000
G1 X2.604S0
G1 X2.117S1000
G1 X0.24S0
G1 Y0.1S0
G1 X-0.24S0
G1 X-2.117S1000
G1 X-2.604S0
G1 X-2.116S1000
G1 X-1.991S0
G1 X-2.117S1000
G1 X-1.935S0
G1 X-2.117S1000
G1 X-2.603S0
G1 X-2.117S1000
G1 X-1.894S0
G1 X-2.412S1000
G1 X-2.99S0
G1 X-2.297S1000
G1 X-4.552S0
G1 X-2.418S1000
G1 X-2.499S0
G1 X-2.018S1000
G1 X-2.768S0
G1 X-2.058S1000
G1 X-3.279S0
G1 X-2.116S1000
G1 X-1.707S0
G1 X-2.293S1000
G1 X-2.994S0
G1 X-2.405S1000
G1 X-7.288S0
G1 X-1.93S1000
G1 X-0.086S0
G1 X-1.964S1000
G1 X-3.912S0
G1 X-2.397S1000
G1 X-0.852S0
G1 X-2.346S1000
G1 X-1.722S0
G1 X-2.226S1000
G1 X-3.211S0
G1 X-2.269S1000
G1 X-3.522S0
G1 X-2.116S1000
G1 X-5.82S0
G1 X-8.212S1000
G1 X-0.24S0
G1 X-0.024Y0.1S0
G1 X0.24S0
G1 X8.236S1000
G1 X5.82S0
G1 X2.116S1000
G1 X3.493S0
G1 X2.229S1000
G1 X3.34S0
G1 X2.198S1000
G1 X1.69S0
G1 X2.445S1000
G1 X0.686S0
G1 X2.396S1000
G1 X3.939S0
G1 X1.97S1000
G1 X0.155S0
G1 X1.935S1000
G1 X7.249S0
G1 X2.352S1000
G1 X3.098S0
G1 X2.266S1000
G1 X1.683S0
G1 X2.116S1000
G1 X3.295S0
G1 X2.079S1000
G1 X2.742S0
G1 X2.007S1000
G1 X2.594S0
G1 X2.419S1000
G1 X4.433S0
G1 X2.266S1000
G1 X3.095S0
G1 X2.361S1000
G1 X1.894S0
G1 X2.117S1000
G1 X2.603S0
G1 X2.117S1000
G1 X1.935S0
G1 X2.117S1000
G1 X1.991S0
G1 X2.116S1000
G1 X2.604S0
G1 X2.117S1000
G1 X0.24S0
G1 Y0.1S0
G1 X-0.24S0
G1 X-2.117S1000
G1 X-2.604S0
G1 X-2.116S1000
G1 X-1.991S0
G1 X-2.117S1000
G1 X-1.935S0
G1 X-2.117S1000
G1 X-2.603S0
G1 X-2.117S1000
G1 X-1.894S0
G1 X-2.311S1000
G1 X-3.198S0
G1 X-2.235S1000
G1 X-4.316S0
G1 X-2.42S1000
G1 X-2.688S0
G1 X-2.005S1000
G1 X-2.699S0
G1 X-2.108S1000
G1 X-3.311S0
G1 X-2.116S1000
G1 X-1.659S0
G1 X-2.24S1000
G1 X-3.2S0
G1 X-2.3S1000
G1 X-7.21S0
G1 X-1.941S1000
G1 X-0.223S0
G1 X-1.976S1000
G1 X-3.966S0
G1 X-2.395S1000
G1 X-0.52S0
G1 X-2.544S1000
G1 X-1.663S0
G1 X-2.177S1000
G1 X-3.44S0
G1 X-2.204S1000
G1 X-3.466S0
G1 X-2.116S1000
G1 X-5.82S0
G1 X-8.26S1000
G1 X-0.24S0
G1 X-0.024Y0.1S0
G1 X0.24S0
G1 X8.284S1000
G1 X5.82S0
G1 X2.118S1000
G1 X3.437S0
G1 X2.179S1000
G1 X3.54S0
G1 X2.156S1000
G1 X1.636S0
G1 X2.643S1000
G1 X0.354S0
G1 X2.394S1000
G1 X3.994S0
G1 X1.981S1000
G1 X0.292S0
G1 X1.946S1000
G1 X7.171S0
G1 X2.248S1000
G1 X3.301S0
G1 X2.214S1000
G1 X1.636S0
G1 X2.118S1000
G1 X3.335S0
G1 X2.154S1000
G1 X2.627S0
G1 X2.005S1000
G1 X2.783S0
G1 X2.42S1000
G1 X4.198S0
G1 X2.205S1000
G1 X3.301S0
G1 X2.261S1000
G1 X1.894S0
G1 X2.117S1000
G1 X2.603S0
G1 X2.117S1000
G1 X1.935S0
G1 X2.117S1000
G1 X1.991S0
G1 X2.116S1000
G1 X2.604S0
G1 X2.117S1000
G1 X0.24S0
G1 Y0.1S0
G1 X-0.24S0
G1 X-2.117S1000
G1 X-2.604S0
G1 X-2.116S1000
G1 X-1.991S0
G1 X-2.117S1000
G1 X-1.935S0
G1 X-2.117S1000
G1 X-2.603S0
G1 X-2.117S1000
G1 X-1.894S0
G1 X-2.22S1000
G1 X-3.379S0
G1 X-2.182S1000
G1 X-4.089S0
G1 X-2.42S1000
G1 X-2.878S0
G1 X-2.005S1000
G1 X-2.528S0
G1 X-2.225S1000
G1 X-3.36S0
G1 X-2.121S1000
G1 X-1.621S0
G1 X-2.187S1000
G1 X-3.379S0
G1 X-2.212S1000
G1 X-7.131S0
G1 X-1.953S1000
G1 X-0.36S0
G1 X-1.987S1000
G1 X-4.02S0
G1 X-2.394S1000
G1 X-0.188S0
G1 X-2.742S1000
G1 X-1.609S0
G1 X-2.141S1000
G1 X-3.632S0
G1 X-2.153S1000
G1 X-3.41S0
G1 X-2.121S1000
G1 X-5.82S0
G1 X-8.308S1000
G1 X-0.24S0
G1 X-0.024Y0.1S0
G1 X0.24S0
G1 X8.332S1000
G1 X5.82S0
G1 X2.124S1000
G1 X3.391S0
G1 X2.141S1000
G1 X3.688S0
G1 X2.129S1000
G1 X1.593S0
G1 X2.841S1000
G1 X0.022S0
G1 X2.393S1000
G1 X4.047S0
G1 X1.993S1000
G1 X0.429S0
G1 X1.958S1000
G1 X7.092S0
G1 X2.185S1000
G1 X3.442S0
G1 X2.164S1000
G1 X1.608S0
G1 X2.124S1000
G1 X3.392S0
G1 X2.321S1000
G1 X2.322S0
G1 X2.08S1000
G1 X2.973S0
G1 X2.42S1000
G1 X3.981S0
G1 X2.168S1000
G1 X3.441S0
G1 X2.185S1000
G1 X1.894S0
G1 X2.117S1000
G1 X2.603S0
G1 X2.117S1000
G1 X1.935S0
G1 X2.117S1000
G1 X1.991S0
G1 X2.116S1000
G1 X2.604S0
G1 X2.117S1000
G1 X0.24S0
G1 Y0.1S0
G1 X-0.24S0
G1 X-2.117S1000
G1 X-2.604S0
G1 X-2.116S1000
G1 X-1.991S0
G1 X-2.117S1000
G1 X-1.935S0
G1 X-2.117S1000
G1 X-2.603S0
G1 X-2.117S1000
G1 X-1.894S0
G1 X-2.158S1000
G1 X-3.495S0
G1 X-2.153S1000
G1 X-3.874S0
G1 X-2.42S1000
G1 X-3.068S0
G1 X-2.386S1000
G1 X-1.819S0
G1 X-2.475S1000
G1 X-3.428S0
G1 X-2.131S1000
G1 X-1.594S0
G1 X-2.15S1000
G1 X-3.497S0
G1 X-2.158S1000
G1 X-7.053S0
G1 X-1.963S1000
G1 X-0.498S0
G1 X-1.999S1000
G1 X-4.074S0
G1 X-5.188S1000
G1 X-1.578S0
G1 X-2.116S1000
G1 X-3.744S0
G1 X-2.128S1000
G1 X-3.369S0
G1 X-2.131S1000
G1 X-5.82S0
G1 X-8.356S1000
G1 X-0.24S0
G1 X-0.024Y0.1S0
G1 X0.24S0
G1 X8.38S1000
G1 X5.82S0
G1 X2.141S1000
G1 X3.343S0
G1 X2.115S1000
G1 X3.802S0
G1 X2.103S1000
G1 X1.562S0
G1 X5.12S1000
G1 X4.101S0
G1 X2.005S1000
G1 X0.566S0
G1 X1.97S1000
G1 X7.013S0
G1 X2.131S1000
G1 X3.548S0
G1 X2.139S1000
G1 X1.581S0
G1 X2.14S1000
G1 X3.465S0
G1 X2.815S1000
G1 X0.95S0
G1 X2.869S1000
G1 X3.162S0
G1 X2.421S1000
G1 X3.766S0
G1 X2.139S1000
G1 X3.546S0
G1 X2.134S1000
G1 X1.894S0
G1 X2.117S1000
G1 X2.603S0
G1 X2.117S1000
G1 X1.935S0
G1 X2.117S1000
G1 X1.991S0
G1 X2.116S1000
G1 X2.604S0
G1 X2.117S1000
G1 X0.24S0
G1 Y0.1S0
G1 X-0.24S0
G1 X-2.117S1000
G1 X-2.604S0
G1 X-2.116S1000
G1 X-1.991S0
G1 X-2.117S1000
G1 X-1.935S0
G1 X-2.117S1000
G1 X-2.603S0
G1 X-2.117S1000
G1 X-1.894S0
G1 X-2.117S1000
G1 X-3.576S0
G1 X-2.132S1000
G1 X-3.665S0
G1 X-2.421S1000
G1 X-3.257S0
G1 X-6.574S1000
G1 X-3.515S0
G1 X-2.15S1000
G1 X-1.575S0
G1 X-2.129S1000
G1 X-3.578S0
G1 X-2.117S1000
G1 X-6.974S0
G1 X-1.975S1000
G1 X-0.635S0
G1 X-2.011S1000
G1 X-4.128S0
G1 X-5.052S1000
G1 X-1.55S0
G1 X-2.1S1000
G1 X-3.838S0
G1 X-2.103S1000
G1 X-3.325S0
G1 X-2.15S1000
G1 X-5.82S0
G1 X-8.404S1000
G1 X-0.24S0
G1 X-0.024Y0.1S0
G1 X0.24S0
G1 X8.428S1000
G1 X5.82S0
G1 X2.165S1000
G1 X3.304S0
G1 X2.1S1000
G1 X3.856S0
G1 X2.097S1000
G1 X1.544S0
G1 X4.984S1000
G1 X4.155S0
G1 X2.017S1000
G1 X0.703S0
G1 X1.981S1000
G1 X6.935S0
G1 X2.109S1000
G1 X3.6S0
G1 X2.119S1000
G1 X1.571S0
G1 X2.164S1000
G1 X3.563S0
G1 X6.512S1000
G1 X3.352S0
G1 X2.422S1000
G1 X3.565S0
G1 X2.127S1000
G1 X3.599S0
G1 X2.103S1000
G1 X1.894S0
G1 X2.117S1000
G1 X2.603S0
G1 X2.117S1000
G1 X1.935S0
G1 X2.117S1000
G1 X1.991S0
G1 X2.116S1000
G1 X2.604S0
G1 X2.117S1000
G1 X0.24S0
G1 Y0.1S0
G1 X-0.24S0
G1 X-2.117S1000
G1 X-2.604S0
G1 X-2.116S1000
G1 X-1.991S0
G1 X-2.117S1000
G1 X-1.935S0
G1 X-2.117S1000
G1 X-2.603S0
G1 X-2.117S1000
G1 X-1.894S0
G1 X-2.095S1000
G1 X-3.615S0
G1 X-2.123S1000
G1 X-3.466S0
G1 X-2.422S1000
G1 X-3.447S0
G1 X-6.435S1000
G1 X-3.622S0
G1 X-2.182S1000
G1 X-1.566S0
G1 X-2.117S1000
G1 X-3.615S0
G1 X-2.101S1000
G1 X-6.896S0
G1 X-1.986S1000
G1 X-0.772S0
G1 X-2.023S1000
G1 X-4.182S0
G1 X-4.916S1000
G1 X-1.539S0
G1 X-2.093S1000
G1 X-3.874S0
G1 X-2.096S1000
G1 X-3.282S0
G1 X-2.182S1000
G1 X-5.82S0
G1 X-8.452S1000
G1 X-0.24S0
G1 X0.023Y0.1S0
G1 X0.24S0
G1 X8.429S1000
G1 X5.82S0
G1 X2.2S1000
G1 X3.259S0
G1 X2.092S1000
G1 X3.892S0
G1 X2.089S1000
G1 X1.534S0
G1 X4.848S1000
G1 X4.21S0
G1 X2.028S1000
G1 X0.84S0
G1 X1.993S1000
G1 X6.856S0
G1 X2.093S1000
G1 X3.627S0
G1 X2.117S1000
G1 X1.562S0
G1 X2.199S1000
G1 X3.687S0
G1 X6.353S1000
G1 X3.541S0
G1 X2.423S1000
G1 X3.367S0
G1 X2.119S1000
G1 X3.627S0
G1 X2.091S1000
G1 X1.894S0
G1 X2.117S1000
G1 X2.603S0
G1 X2.117S1000
G1 X1.935S0
G1 X2.117S1000
G1 X1.991S0
G1 X2.116S1000
G1 X2.604S0
G1 X2.117S1000
G1 X0.24S0
G1 Y0.1S0
G1 X-0.24S0
G1 X-2.117S1000
G1 X-2.604S0
G1 X-2.116S1000
G1 X-1.991S0
G1 X-2.117S1000
G1 X-1.935S0
G1 X-2.117S1000
G1 X-2.603S0
G1 X-2.117S1000
G1 X-1.894S0
G1 X-2.089S1000
G1 X-3.632S0
G1 X-2.117S1000
G1 X-3.271S0
G1 X-2.423S1000
G1 X-3.636S0
G1 X-6.255S1000
G1 X-3.759S0
G1 X-2.225S1000
G1 X-1.561S0
G1 X-2.116S1000
G1 X-3.632S0
G1 X-2.09S1000
G1 X-6.817S0
G1 X-1.998S1000
G1 X-0.909S0
G1 X-2.034S1000
G1 X-4.237S0
G1 X-4.78S1000
G1 X-1.533S0
G1 X-2.092S1000
G1 X-3.892S0
G1 X-2.088S1000
G1 X-3.236S0
G1 X-2.225S1000
G1 X-5.82S0
G1 X-8.338S1000
G1 X-0.24S0
G1 X0.09Y0.1S0
G1 X0.24S0
G1 X2.328S1000
G1 X2.564S0
G1 X2.047S1000
G1 X7.129S0
G1 X2.252S1000
G1 X3.214S0
G1 X2.091S1000
G1 X3.875S0
G1 X2.096S1000
G1 X1.538S0
G1 X4.712S1000
G1 X4.264S0
G1 X2.04S1000
G1 X0.978S0
G1 X2.003S1000
G1 X6.778S0
G1 X2.094S1000
G1 X3.623S0
G1 X2.117S1000
G1 X1.565S0
G1 X2.251S1000
G1 X3.846S0
G1 X6.142S1000
G1 X3.731S0
G1 X2.423S1000
G1 X3.18S0
G1 X2.117S1000
G1 X3.623S0
G1 X2.094S1000
G1 X1.894S0
G1 X2.117S1000
G1 X2.603S0
G1 X2.117S1000
G1 X1.935S0
G1 X2.117S1000
G1 X1.991S0
G1 X2.116S1000
G1 X2.604S0
G1 X2.117S1000
G1 X0.24S0
G1 Y0.1S0
G1 X-0.24S0
G1 X-2.117S1000
G1 X-2.604S0
G1 X-2.116S1000
G1 X-1.991S0
G1 X-2.117S1000
G1 X-1.935S0
G1 X-2.117S1000
G1 X-2.603S0
G1 X-2.117S1000
G1 X-1.894S0
G1 X-2.099S1000
G1 X-3.615S0
G1 X-2.116S1000
G1 X-3.089S0
G1 X-2.423S1000
G1 X-3.826S0
G1 X-6.014S1000
G1 X-3.942S0
G1 X-2.283S1000
G1 X-1.569S0
G1 X-2.118S1000
G1 X-3.614S0
G1 X-2.098S1000
G1 X-6.738S0
G1 X-2.01S1000
G1 X-1.046S0
G1 X-2.046S1000
G1 X-4.291S0
G1 X-4.644S1000
G1 X-1.543S0
G1 X-2.1S1000
G1 X-3.858S0
G1 X-2.094S1000
G1 X-3.188S0
G1 X-2.283S1000
G1 X-7.129S0
G1 X-2.047S1000
G1 X-2.475S0
G1 X-2.326S1000
G1 X-0.24S0
G1 X0.09Y0.1S0
G1 X0.24S0
G1 X2.326S1000
G1 X2.385S0
G1 X2.047S1000
G1 X7.129S0
G1 X2.32S1000
G1 X3.156S0
G1 X2.097S1000
G1 X3.841S0
G1 X2.104S1000
G1 X1.548S0
G1 X4.576S1000
G1 X4.318S0
G1 X2.052S1000
G1 X1.115S0
G1 X2.015S1000
G1 X6.699S0
G1 X2.111S1000
G1 X3.587S0
G1 X2.127S1000
G1 X1.574S0
G1 X2.32S1000
G1 X4.066S0
G1 X5.853S1000
G1 X3.921S0
G1 X2.423S1000
G1 X2.998S0
G1 X2.125S1000
G1 X3.588S0
G1 X2.113S1000
G1 X1.894S0
G1 X2.117S1000
G1 X2.603S0
G1 X2.117S1000
G1 X1.935S0
G1 X2.117S1000
G1 X1.991S0
G1 X2.116S1000
G1 X2.604S0
G1 X2.117S1000
G1 X0.24S0
G1 Y0.1S0
G1 X-0.24S0
G1 X-2.118S1000
G1 X-2.601S0
G1 X-2.118S1000
G1 X-1.991S0
G1 X-2.117S1000
G1 X-1.935S0
G1 X-2.118S1000
G1 X-2.601S0
G1 X-2.118S1000
G1 X-1.894S0
G1 X-2.127S1000
G1 X-3.561S0
G1 X-2.134S1000
G1 X-2.907S0
G1 X-2.424S1000
G1 X-4.015S0
G1 X-5.658S1000
G1 X-4.222S0
G1 X-2.359S1000
G1 X-1.578S0
G1 X-2.138S1000
G1 X-3.559S0
G1 X-2.124S1000
G1 X-6.66S0
G1 X-2.021S1000
G1 X-1.183S0
G1 X-2.058S1000
G1 X-4.345S0
G1 X-4.508S1000
G1 X-1.558S0
G1 X-2.116S1000
G1 X-3.804S0
G1 X-2.1S1000
G1 X-3.128S0
G1 X-2.36S1000
G1 X-7.129S0
G1 X-2.047S1000
G1 X-2.296S0
G1 X-2.325S1000
G1 X-0.24S0
G1 X0.091Y0.1S0
G1 X0.24S0
G1 X2.323S1000
G1 X2.207S0
G1 X2.047S1000
G1 X7.129S0
G1 X2.41S1000
G1 X3.094S0
G1 X2.11S1000
G1 X3.749S0
G1 X2.13S1000
G1 X1.573S0
G1 X4.44S1000
G1 X4.372S0
G1 X2.064S1000
G1 X1.252S0
G1 X2.026S1000
G1 X6.621S0
G1 X2.146S1000
G1 X3.513S0
G1 X2.15S1000
G1 X1.59S0
G1 X2.409S1000
G1 X4.413S0
G1 X3.235S1000
G1 X0.149S0
G1 X2.033S1000
G1 X4.11S0
G1 X2.425S1000
G1 X2.823S0
G1 X2.143S1000
G1 X3.515S0
G1 X2.152S1000
G1 X1.894S0
G1 X2.124S1000
G1 X2.589S0
G1 X2.124S1000
G1 X1.935S0
G1 X2.117S1000
G1 X1.991S0
G1 X2.124S1000
G1 X2.589S0
G1 X2.124S1000
G1 X0.24S0
G1 Y0.1S0
G1 X-0.24S0
G1 X-2.131S1000
G1 X-2.575S0
G1 X-2.131S1000
G1 X-1.991S0
G1 X-2.117S1000
G1 X-1.935S0
G1 X-2.13S1000
G1 X-2.576S0
G1 X-2.131S1000
G1 X-1.894S0
G1 X-2.178S1000
G1 X-3.467S0
G1 X-2.152S1000
G1 X-2.741S0
G1 X-2.425S1000
G1 X-4.207S0
G1 X-2.033S1000
G1 X-0.517S0
G1 X-2.541S1000
G1 X-4.685S0
G1 X-2.461S1000
G1 X-1.604S0
G1 X-2.162S1000
G1 X-3.463S0
G1 X-2.17S1000
G1 X-6.581S0
G1 X-2.033S1000
G1 X-1.32S0
G1 X-2.069S1000
G1 X-4.4S0
G1 X-4.372S1000
G1 X-1.589S0
G1 X-2.143S1000
G1 X-3.694S0
G1 X-2.12S1000
G1 X-3.058S0
G1 X-2.462S1000
G1 X-7.129S0
G1 X-2.047S1000
G1 X-2.117S0
G1 X-2.323S1000
G1 X-0.24S0
G1 X0.09Y0.1S0
G1 X0.24S0
G1 X2.322S1000
G1 X2.028S0
G1 X2.047S1000
G1 X7.129S0
G1 X2.527S1000
G1 X3.009S0
G1 X2.13S1000
G1 X3.639S0
G1 X2.156S1000
G1 X1.605S0
G1 X4.304S1000
G1 X4.427S0
G1 X2.075S1000
G1 X1.389S0
G1 X2.038S1000
G1 X6.542S0
G1 X2.203S1000
G1 X3.394S0
G1 X2.185S1000
G1 X1.617S0
G1 X2.527S1000
G1 X5.132S0
G1 X1.478S1000
G1 X1.059S0
G1 X2.037S1000
G1 X4.306S0
G1 X2.425S1000
G1 X2.659S0
G1 X2.172S1000
G1 X3.398S0
G1 X2.214S1000
G1 X1.894S0
G1 X2.137S1000
G1 X2.563S0
G1 X2.137S1000
G1 X1.935S0
G1 X2.117S1000
G1 X1.991S0
G1 X2.137S1000
G1 X2.563S0
G1 X2.137S1000
G1 X0.24S0
G1 Y0.1S0
G1 X-0.24S0
G1 X-2.156S1000
G1 X-2.524S0
G1 X-2.157S1000
G1 X-1.991S0
G1 X-2.117S1000
G1 X-1.935S0
G1 X-2.156S1000
G1 X-2.523S0
G1 X-2.158S1000
G1 X-1.894S0
G1 X-2.252S1000
G1 X-3.325S0
G1 X-2.194S1000
G1 X-2.577S0
G1 X-2.426S1000
G1 X-4.403S0
G1 X-2.043S1000
G1 X-7.588S0
G1 X-2.599S1000
G1 X-1.631S0
G1 X-2.209S1000
G1 X-3.319S0
G1 X-2.24S1000
G1 X-6.503S0
G1 X-2.044S1000
G1 X-1.457S0
G1 X-2.081S1000
G1 X-4.323S0
G1 X-4.367S1000
G1 X-1.629S0
G1 X-2.177S1000
G1 X-3.549S0
G1 X-2.148S1000
G1 X-2.964S0
G1 X-2.599S1000
G1 X-7.129S0
G1 X-2.047S1000
G1 X-1.939S0
G1 X-2.32S1000
G1 X-0.24S0
G1 X0.09Y0.1S0
G1 X0.24S0
G1 X2.32S1000
G1 X1.849S0
G1 X2.047S1000
G1 X7.129S0
G1 X2.685S1000
G1 X2.905S0
G1 X2.17S1000
G1 X3.451S0
G1 X2.198S1000
G1 X1.657S0
G1 X4.468S1000
G1 X4.181S0
G1 X2.087S1000
G1 X1.526S0
G1 X2.05S1000
G1 X6.463S0
G1 X2.291S1000
G1 X3.225S0
G1 X2.23S1000
G1 X1.653S0
G1 X2.684S1000
G1 X7.49S0
G1 X2.051S1000
G1 X4.503S0
G1 X2.426S1000
G1 X2.503S0
G1 X2.226S1000
G1 X3.229S0
G1 X2.295S1000
G1 X1.894S0
G1 X2.18S1000
G1 X2.479S0
G1 X2.178S1000
G1 X1.935S0
G1 X2.117S1000
G1 X1.991S0
G1 X2.18S1000
G1 X2.479S0
G1 X2.178S1000
G1 X0.24S0
G1 Y0.1S0
G1 X-0.24S0
G1 X-2.199S1000
G1 X-2.436S0
G1 X-2.202S1000
G1 X-1.991S0
G1 X-2.117S1000
G1 X-1.935S0
G1 X-2.199S1000
G1 X-2.436S0
G1 X-2.202S1000
G1 X-1.894S0
G1 X-2.343S1000
G1 X-3.128S0
G1 X-2.256S1000
G1 X-2.431S0
G1 X-2.426S1000
G1 X-4.609S0
G1 X-2.069S1000
G1 X-7.35S0
G1 X-2.795S1000
G1 X-1.678S0
G1 X-2.253S1000
G1 X-3.126S0
G1 X-2.342S1000
G1 X-6.424S0
G1 X-2.055S1000
G1 X-1.595S0
G1 X-2.093S1000
G1 X-4.039S0
G1 X-2.391S1000
G1 X-0.062S0
G1 X-2.116S1000
G1 X-1.684S0
G1 X-2.228S1000
G1 X-3.344S0
G1 X-2.193S1000
G1 X-2.821S0
G1 X-2.796S1000
G1 X-7.129S0
G1 X-2.047S1000
G1 X-1.76S0
G1 X-2.319S1000
G1 X-0.24S0
G1 X0.091Y0.1S0
G1 X0.24S0
G1 X2.317S1000
G1 X1.671S0
G1 X2.047S1000
G1 X7.129S0
G1 X2.921S1000
G1 X2.73S0
G1 X2.22S1000
G1 X3.215S0
G1 X2.266S1000
G1 X1.714S0
G1 X2.116S1000
G1 X0.158S0
G1 X2.397S1000
G1 X3.896S0
G1 X2.099S1000
G1 X1.663S0
G1 X2.061S1000
G1 X6.385S0
G1 X2.392S1000
G1 X3.02S0
G1 X2.285S1000
G1 X1.702S0
G1 X2.92S1000
G1 X7.196S0
G1 X2.087S1000
G1 X4.715S0
G1 X2.426S1000
G1 X2.359S0
G1 X2.287S1000
G1 X3.019S0
G1 X2.398S1000
G1 X1.894S0
G1 X2.245S1000
G1 X2.352S0
G1 X2.237S1000
G1 X1.938S0
G1 X2.117S1000
G1 X1.991S0
G1 X2.245S1000
G1 X2.352S0
G1 X2.237S1000
G1 X0.24S0
G1 Y0.1S0
G1 X-0.244S0
G1 X-2.276S1000
G1 X-2.265S0
G1 X-2.289S1000
G1 X-1.991S0
G1 X-2.117S1000
G1 X-1.942S0
G1 X-2.276S1000
G1 X-2.265S0
G1 X-2.289S1000
G1 X-1.894S0
G1 X-2.466S1000
G1 X-2.876S0
G1 X-2.338S1000
G1 X-2.288S0
G1 X-2.426S1000
G1 X-4.821S0
G1 X-2.122S1000
G1 X-7.025S0
G1 X-3.045S1000
G1 X-1.726S0
G1 X-2.328S1000
G1 X-2.881S0
G1 X-2.464S1000
G1 X-6.346S0
G1 X-2.066S1000
G1 X-1.732S0
G1 X-2.105S1000
G1 X-3.754S0
G1 X-2.403S1000
G1 X-0.253S0
G1 X-2.116S1000
G1 X-1.754S0
G1 X-2.301S1000
G1 X-3.063S0
G1 X-2.258S1000
G1 X-2.644S0
G1 X-3.046S1000
G1 X-7.129S0
G1 X-2.047S1000
G1 X-1.581S0
G1 X-2.317S1000
G1 X-0.24S0
G1 X0.09Y0.1S0
G1 X0.24S0
G1 X2.316S1000
G1 X1.492S0
G1 X2.047S1000
G1 X7.129S0
G1 X3.247S1000
G1 X2.483S0
G1 X2.295S1000
G1 X2.896S0
G1 X2.352S1000
G1 X1.793S0
G1 X2.116S1000
G1 X0.349S0
G1 X2.408S1000
G1 X3.612S0
G1 X2.111S1000
G1 X1.8S0
G1 X2.073S1000
G1 X6.306S0
G1 X2.54S1000
G1 X2.729S0
G1 X2.367S1000
G1 X1.763S0
G1 X3.247S1000
G1 X6.767S0
G1 X2.16S1000
G1 X4.933S0
G1 X2.428S1000
G1 X2.226S0
G1 X2.385S1000
G1 X2.719S0
G1 X2.542S1000
G1 X1.894S0
G1 X2.349S1000
G1 X2.149S0
G1 X2.329S1000
G1 X1.945S0
G1 X2.117S1000
G1 X1.991S0
G1 X2.348S1000
G1 X2.15S0
G1 X2.329S1000
G1 X0.24S0
G1 X-0.01Y0.1S0
G1 X-0.24S0
G1 X-2.392S1000
G1 X-2.001S0
G1 X-2.424S1000
G1 X-1.991S0
G1 X-2.117S1000
G1 X-1.955S0
G1 X-2.392S1000
G1 X-2.001S0
G1 X-2.424S1000
G1 X-1.894S0
G1 X-2.631S1000
G1 X-2.549S0
G1 X-2.431S1000
G1 X-2.166S0
G1 X-2.428S1000
G1 X-5.048S0
G1 X-2.212S1000
G1 X-6.481S0
G1 X-3.461S1000
G1 X-1.799S0
G1 X-2.42S1000
G1 X-2.563S0
G1 X-2.617S1000
G1 X-6.267S0
G1 X-2.078S1000
G1 X-1.869S0
G1 X-2.116S1000
G1 X-3.471S0
G1 X-2.414S1000
G1 X-0.444S0
G1 X-2.116S1000
G1 X-1.833S0
G1 X-2.413S1000
G1 X-2.703S0
G1 X-2.346S1000
G1 X-2.309S0
G1 X-3.462S1000
G1 X-7.129S0
G1 X-2.047S1000
G1 X-1.403S0
G1 X-2.314S1000
G1 X-0.24S0
G1 X0.09Y0.1S0
G1 X0.24S0
G1 X2.314S1000
G1 X1.313S0
G1 X2.047S1000
G1 X7.129S0
G1 X3.85S1000
G1 X1.972S0
G1 X2.406S1000
G1 X2.476S0
G1 X2.48S1000
G1 X1.882S0
G1 X2.116S1000
G1 X0.54S0
G1 X2.419S1000
G1 X3.329S0
G1 X2.122S1000
G1 X1.937S0
G1 X2.084S1000
G1 X6.228S0
G1 X2.732S1000
G1 X2.344S0
G1 X2.488S1000
G1 X1.835S0
G1 X3.85S1000
G1 X2.692S0
G1 X0.021S1000
G1 X3.284S0
G1 X2.287S1000
G1 X5.163S0
G1 X2.428S1000
G1 X2.105S0
G1 X2.512S1000
G1 X2.335S0
G1 X2.73S1000
G1 X1.894S0
G1 X2.52S1000
G1 X1.814S0
G1 X2.472S1000
G1 X1.966S0
G1 X2.117S1000
G1 X1.991S0
G1 X2.52S1000
G1 X1.814S0
G1 X2.472S1000
G1 X0.24S0
G1 X-0.011Y0.1S0
G1 X-0.24S0
G1 X-2.574S1000
G1 X-1.58S0
G1 X-2.641S1000
G1 X-1.991S0
G1 X-2.117S1000
G1 X-1.977S0
G1 X-2.574S1000
G1 X-1.58S0
G1 X-2.641S1000
G1 X-1.894S0
G1 X-2.85S1000
G1 X-2.1S0
G1 X-2.585S1000
G1 X-2.052S0
G1 X-2.428S1000
G1 X-5.284S0
G1 X-2.388S1000
G1 X-2.85S0
G1 X-0.363S1000
G1 X-2.01S0
G1 X-4.497S1000
G1 X-1.877S0
G1 X-2.57S1000
G1 X-2.105S0
G1 X-2.847S1000
G1 X-6.188S0
G1 X-2.09S1000
G1 X-2.006S0
G1 X-2.128S1000
G1 X-3.186S0
G1 X-2.425S1000
G1 X-0.636S0
G1 X-2.116S1000
G1 X-1.933S0
G1 X-2.567S1000
G1 X-2.202S0
G1 X-2.491S1000
G1 X-1.376S0
G1 X-4.497S1000
G1 X-7.129S0
G1 X-2.047S1000
G1 X-1.224S0
G1 X-2.313S1000
G1 X-0.24S0
G1 X0.091Y0.1S0
G1 X0.24S0
G1 X2.311S1000
G1 X1.135S0
G1 X2.047S1000
G1 X7.129S0
G1 X4.497S1000
G1 X1.427S0
G1 X2.612S1000
G1 X1.86S0
G1 X2.685S1000
G1 X1.985S0
G1 X2.116S1000
G1 X0.731S0
G1 X2.431S1000
G1 X3.044S0
G1 X2.134S1000
G1 X2.075S0
G1 X2.095S1000
G1 X6.149S0
G1 X3.007S1000
G1 X1.791S0
G1 X2.679S1000
G1 X1.922S0
G1 X4.497S1000
G1 X1.976S0
G1 X0.748S1000
G1 X2.335S0
G1 X2.522S1000
G1 X5.408S0
G1 X2.429S1000
G1 X2.004S0
G1 X2.698S1000
G1 X1.789S0
G1 X3.001S1000
G1 X1.894S0
G1 X2.824S1000
G1 X1.221S0
G1 X2.731S1000
G1 X1.996S0
G1 X2.117S1000
G1 X1.991S0
G1 X2.824S1000
G1 X1.221S0
G1 X2.73S1000
G1 X0.24S0
G1 X-0.019Y0.1S0
G1 X-0.24S0
G1 X-3.017S1000
G1 X-0.602S0
G1 X-3.137S1000
G1 X-1.991S0
G1 X-2.117S1000
G1 X-2.016S0
G1 X-3.016S1000
G1 X-0.603S0
G1 X-3.137S1000
G1 X-1.894S0
G1 X-3.203S1000
G1 X-1.405S0
G1 X-2.833S1000
G1 X-1.956S0
G1 X-2.429S1000
G1 X-5.533S0
G1 X-2.766S1000
G1 X-1.593S0
G1 X-1.25S1000
G1 X-1.942S0
G1 X-4.497S1000
G1 X-1.968S0
G1 X-2.837S1000
G1 X-1.405S0
G1 X-3.189S1000
G1 X-6.11S0
G1 X-2.101S1000
G1 X-2.143S0
G1 X-2.14S1000
G1 X-2.902S0
G1 X-2.436S1000
G1 X-0.827S0
G1 X-2.116S1000
G1 X-2.044S0
G1 X-2.853S1000
G1 X-1.401S0
G1 X-2.781S1000
G1 X-1.49S0
G1 X-4.497S1000
G1 X-7.129S0
G1 X-2.047S1000
G1 X-1.045S0
G1 X-2.311S1000
G1 X-0.24S0
G1 X0.091Y0.1S0
G1 X0.24S0
G1 X2.309S1000
G1 X0.956S0
G1 X2.047S1000
G1 X7.129S0
G1 X4.497S1000
G1 X1.554S0
G1 X3.14S1000
G1 X0.567S0
G1 X3.199S1000
G1 X2.109S0
G1 X2.116S1000
G1 X0.922S0
G1 X2.442S1000
G1 X2.76S0
G1 X2.146S1000
G1 X2.212S0
G1 X2.106S1000
G1 X6.071S0
G1 X3.497S1000
G1 X0.799S0
G1 X3.087S1000
G1 X2.016S0
G1 X4.497S1000
G1 X1.908S0
G1 X5.605S1000
G1 X1.928S0
G1 X6.167S1000
G1 X1.911S0
G1 X3.091S1000
G1 X0.799S0
G1 X3.501S1000
G1 X1.894S0
G1 X6.734S1000
G1 X2.038S0
G1 X2.117S1000
G1 X1.991S0
G1 X6.733S1000
G1 X0.24S0
G1 X-0.029Y0.1S0
G1 X-0.24S0
G1 X-6.704S1000
G1 X-1.991S0
G1 X-2.117S1000
G1 X-2.068S0
G1 X-6.704S1000
G1 X-1.894S0
G1 X-7.333S1000
G1 X-1.874S0
G1 X-6.262S1000
G1 X-1.969S0
G1 X-5.599S1000
G1 X-1.873S0
G1 X-4.497S1000
G1 X-2.074S0
G1 X-7.325S1000
G1 X-6.031S0
G1 X-2.113S1000
G1 X-2.28S0
G1 X-2.152S1000
G1 X-2.617S0
G1 X-2.448S1000
G1 X-1.018S0
G1 X-2.116S1000
G1 X-2.174S0
G1 X-6.777S1000
G1 X-1.618S0
G1 X-4.497S1000
G1 X-7.129S0
G1 X-2.047S1000
G1 X-0.867S0
G1 X-2.308S1000
G1 X-0.24S0
G1 X0.09Y0.1S0
G1 X0.24S0
G1 X2.308S1000
G1 X0.777S0
G1 X2.047S1000
G1 X7.129S0
G1 X2.116S1000
G1 X2.381
G1 X1.695S0
G1 X6.627S1000
G1 X2.247S0
G1 X2.116S1000
G1 X1.113S0
G1 X2.454S1000
G1 X2.475S0
G1 X2.158S1000
G1 X2.349S0
G1 X2.118S1000
G1 X5.992S0
G1 X7.267S1000
G1 X2.132S0
G1 X2.116S1000
G1 X2.381
G1 X1.839S0
G1 X5.592S1000
G1 X2.01S0
G1 X6.358S1000
G1 X1.837S0
G1 X7.274S1000
G1 X1.894S0
G1 X6.675S1000
G1 X2.097S0
G1 X2.117S1000
G1 X1.991S0
G1 X6.675S1000
G1 X0.24S0
G1 X-0.038Y0.1S0
G1 X-0.24S0
G1 X-6.637S1000
G1 X-1.991S0
G1 X-2.117S1000
G1 X-2.135S0
G1 X-6.637S1000
G1 X-1.894S0
G1 X-7.213S1000
G1 X-1.893S0
G1 X-6.363S1000
G1 X-2.064S0
G1 X-5.572S1000
G1 X-1.805S0
G1 X-2.327S1000
G1 X-0.054S0
G1 X-2.116S1000
G1 X-2.193S0
G1 X-7.206S1000
G1 X-5.953S0
G1 X-2.124S1000
G1 X-2.417S0
G1 X-2.163S1000
G1 X-2.334S0
G1 X-2.459S1000
G1 X-1.209S0
G1 X-2.116S1000
G1 X-2.328S0
G1 X-6.467S1000
G1 X-1.774S0
G1 X-2.326S1000
G1 X-0.055S0
G1 X-2.116S1000
G1 X-7.129S0
G1 X-2.047S1000
G1 X-0.688S0
G1 X-2.306S1000
G1 X-0.24S0
G1 X0.09Y0.1S0
G1 X0.24S0
G1 X2.305S1000
G1 X0.599S0
G1 X2.047S1000
G1 X7.129S0
G1 X2.116S1000
G1 X0.105S0
G1 X2.276S1000
G1 X1.854S0
G1 X6.306S1000
G1 X2.409S0
G1 X2.116S1000
G1 X1.305S0
G1 X2.464S1000
G1 X2.192S0
G1 X2.169S1000
G1 X2.486S0
G1 X2.13S1000
G1 X5.913S0
G1 X7.134S1000
G1 X2.265S0
G1 X2.116S1000
G1 X0.105S0
G1 X2.276S1000
G1 X1.77S0
G1 X5.553S1000
G1 X2.118S0
G1 X6.363S1000
G1 X1.965S0
G1 X7.141S1000
G1 X1.894S0
G1 X6.597S1000
G1 X2.175S0
G1 X2.117S1000
G1 X1.991S0
G1 X6.597S1000
G1 X0.24S0
G1 X-0.046Y0.1S0
G1 X-0.24S0
G1 X-6.551S1000
G1 X-1.991S0
G1 X-2.117S1000
G1 X-2.221S0
G1 X-6.551S1000
G1 X-1.894S0
G1 X-7.069S1000
G1 X-2.037S0
G1 X-6.363S1000
G1 X-2.179S0
G1 X-5.526S1000
G1 X-1.736S0
G1 X-2.226S1000
G1 X-0.155S0
G1 X-2.116S1000
G1 X-2.338S0
G1 X-7.061S1000
G1 X-5.874S0
G1 X-2.136S1000
G1 X-2.554S0
G1 X-2.175S1000
G1 X-2.049S0
G1 X-2.471S1000
G1 X-1.4S0
G1 X-2.116S1000
G1 X-2.504S0
G1 X-6.115S1000
G1 X-1.95S0
G1 X-2.226S1000
G1 X-0.155S0
G1 X-2.116S1000
G1 X-7.129S0
G1 X-2.047S1000
G1 X-0.509S0
G1 X-2.305S1000
G1 X-0.24S0
G1 X0.091Y0.1S0
G1 X0.24S0
G1 X2.303S1000
G1 X0.42S0
G1 X2.047S1000
G1 X7.129S0
G1 X2.116S1000
G1 X0.215S0
G1 X2.166S1000
G1 X2.048S0
G1 X5.918S1000
G1 X2.603S0
G1 X2.116S1000
G1 X1.496S0
G1 X2.476S1000
G1 X1.907S0
G1 X2.181S1000
G1 X2.623S0
G1 X2.141S1000
G1 X5.835S0
G1 X6.98S1000
G1 X2.419S0
G1 X2.116S1000
G1 X0.215S0
G1 X2.166S1000
G1 X1.702S0
G1 X5.491S1000
G1 X2.248S0
G1 X6.363S1000
G1 X2.116S0
G1 X6.99S1000
G1 X1.894S0
G1 X6.498S1000
G1 X2.274S0
G1 X2.117S1000
G1 X1.991S0
G1 X6.498S1000
G1 X0.24S0
G1 X-0.057Y0.1S0
G1 X-0.24S0
G1 X-4.254S1000
G1 X-0.071S0
G1 X-2.116S1000
G1 X-1.991S0
G1 X-2.117S1000
G1 X-2.331S0
G1 X-4.254S1000
G1 X-0.07S0
G1 X-2.117S1000
G1 X-1.894S0
G1 X-2.116S1000
G1 X-4.785
G1 X-2.205S0
G1 X-6.363S1000
G1 X-2.32S0
G1 X-5.454S1000
G1 X-1.667S0
G1 X-2.101S1000
G1 X-0.28S0
G1 X-2.116S1000
G1 X-2.51S0
G1 X-4.692S1000
G1 X-0.081S0
G1 X-2.116S1000
G1 X-5.796S0
G1 X-2.146S1000
G1 X-2.692S0
G1 X-2.187S1000
G1 X-1.765S0
G1 X-2.482S1000
G1 X-1.591S0
G1 X-2.116S1000
G1 X-2.706S0
G1 X-5.712S1000
G1 X-2.151S0
G1 X-2.1S1000
G1 X-0.281S0
G1 X-2.116S1000
G1 X-7.129S0
G1 X-2.047S1000
G1 X-0.331S0
G1 X-2.302S1000
G1 X-0.24S0
G1 X0.09Y0.1S0
G1 X0.24S0
G1 X2.302S1000
G1 X0.241S0
G1 X2.047S1000
G1 X7.129S0
G1 X2.116S1000
G1 X0.346S0
G1 X2.035S1000
G1 X2.27S0
G1 X5.477S1000
G1 X2.822S0
G1 X2.116S1000
G1 X1.687S0
G1 X2.487S1000
G1 X1.623S0
G1 X2.193S1000
G1 X2.76S0
G1 X2.153S1000
G1 X5.756S0
G1 X2.116S1000
G1 X0.166S0
G1 X4.516S1000
G1 X2.601S0
G1 X2.116S1000
G1 X0.346S0
G1 X2.035S1000
G1 X1.633S0
G1 X5.4S1000
G1 X2.408S0
G1 X6.363S1000
G1 X2.294S0
G1 X4.597S1000
G1 X0.099S0
G1 X2.116S1000
G1 X1.894S0
G1 X2.117S1000
G1 X0.156S0
G1 X4.101S1000
G1 X2.398S0
G1 X2.117S1000
G1 X1.991S0
G1 X2.116S1000
G1 X0.156S0
G1 X4.102S1000
G1 X0.24S0
G1 X-0.073Y0.1S0
G1 X-0.24S0
G1 X-3.935S1000
G1 X-0.25S0
G1 X-2.116S1000
G1 X-1.991S0
G1 X-2.117S1000
G1 X-2.47S0
G1 X-3.936S1000
G1 X-0.249S0
G1 X-2.117S1000
G1 X-1.894S0
G1 X-2.116S1000
G1 X-0.196S0
G1 X-4.392S1000
G1 X-2.402S0
G1 X-6.363S1000
G1 X-2.496S0
G1 X-5.346S1000
G1 X-1.599S0
G1 X-1.959S1000
G1 X-0.422S0
G1 X-2.116S1000
G1 X-2.709S0
G1 X-4.313S1000
G1 X-0.261S0
G1 X-2.116S1000
G1 X-5.717S0
G1 X-2.158S1000
G1 X-2.829S0
G1 X-2.199S1000
G1 X-1.481S0
G1 X-2.493S1000
G1 X-1.782S0
G1 X-2.116S1000
G1 X-2.938S0
G1 X-5.243S1000
G1 X-2.388S0
G1 X-1.959S1000
G1 X-0.422S0
G1 X-2.116S1000
G1 X-7.129S0
G1 X-2.047S1000
G1 X-0.152S0
G1 X-2.3S1000
G1 X-0.24S0
G1 X0.09Y0.1S0
G1 X0.24S0
G1 X2.299S1000
G1 X0.063S0
G1 X2.047S1000
G1 X7.129S0
G1 X2.116S1000
G1 X0.507S0
G1 X1.874S1000
G1 X2.53S0
G1 X4.963S1000
G1 X3.076S0
G1 X2.116S1000
G1 X1.878S0
G1 X2.499S1000
G1 X1.338S0
G1 X2.205S1000
G1 X2.897S0
G1 X2.164S1000
G1 X5.678S0
G1 X2.116S1000
G1 X0.363S0
G1 X4.101S1000
G1 X2.819S0
G1 X2.116S1000
G1 X0.507S0
G1 X1.874S1000
G1 X1.565S0
G1 X5.268S1000
G1 X2.608S0
G1 X6.363S1000
G1 X2.512S0
G1 X4.168S1000
G1 X0.31S0
G1 X2.116S1000
G1 X1.894S0
G1 X2.117S1000
G1 X0.347S0
G1 X3.753S1000
G1 X2.555S0
G1 X2.117S1000
G1 X1.991S0
G1 X2.116S1000
G1 X0.348S0
G1 X3.752S1000
G1 X0.24S0
G1 X-0.093Y0.1S0
G1 X-0.24S0
G1 X-3.551S1000
G1 X-0.456S0
G1 X-2.116S1000
G1 X-1.991S0
G1 X-2.117S1000
G1 X-2.649S0
G1 X-3.55S1000
G1 X-0.456S0
G1 X-2.117S1000
G1 X-1.894S0
G1 X-2.116S1000
G1 X-0.426S0
G1 X-3.924S1000
G1 X-2.64S0
G1 X-6.363S1000
G1 X-2.725S0
G1 X-5.186S1000
G1 X-1.53S0
G1 X-1.789S1000
G1 X-0.592S0
G1 X-2.116S1000
G1 X-2.946S0
G1 X-3.863S1000
G1 X-0.474S0
G1 X-2.116S1000
G1 X-5.638S0
G1 X-2.17S1000
G1 X-2.966S0
G1 X-2.21S1000
G1 X-1.197S0
G1 X-2.504S1000
G1 X-1.974S0
G1 X-2.116S1000
G1 X-3.221S0
G1 X-4.673S1000
G1 X-2.675S0
G1 X-1.788S1000
G1 X-0.593S0
G1 X-2.116S1000
G1 X-7.129S0
G1 X-4.319S1000
G1 X-0.24S0
G1 X0.091Y0.1S0
G1 X0.24S0
G1 X4.228S1000
G1 X7.129S0
G1 X2.116S1000
G1 X0.697S0
G1 X1.684S1000
G1 X2.846S0
G1 X4.333S1000
G1 X3.39S0
G1 X2.116S1000
G1 X2.069S0
G1 X2.51S1000
G1 X1.055S0
G1 X2.216S1000
G1 X3.034S0
G1 X2.176S1000
G1 X5.599S0
G1 X2.116S1000
G1 X0.599S0
G1 X3.603S1000
G1 X3.081S0
G1 X2.116S1000
G1 X0.697S0
G1 X1.684S1000
G1 X1.691S0
G1 X4.878S1000
G1 X2.872S0
G1 X6.363S1000
G1 X2.775S0
G1 X3.653S1000
G1 X0.562S0
G1 X2.116S1000
G1 X1.894S0
G1 X2.117S1000
G1 X0.572S0
G1 X3.33S1000
G1 X2.753S0
G1 X2.117S1000
G1 X1.991S0
G1 X2.116S1000
G1 X0.573S0
G1 X3.33S1000
G1 X0.24S0
G1 X-0.126Y0.1S0
G1 X-0.24S0
G1 X-3.07S1000
G1 X-0.707S0
G1 X-2.116S1000
G1 X-1.991S0
G1 X-2.117S1000
G1 X-2.879S0
G1 X-3.069S1000
G1 X-0.707S0
G1 X-2.117S1000
G1 X-1.894S0
G1 X-2.116S1000
G1 X-0.704S0
G1 X-3.349S1000
G1 X-2.937S0
G1 X-6.363S1000
G1 X-3.043S0
G1 X-4.434S1000
G1 X-1.964S0
G1 X-1.573S1000
G1 X-0.808S0
G1 X-2.116S1000
G1 X-3.244S0
G1 X-3.303S1000
G1 X-0.736S0
G1 X-2.116S1000
G1 X-5.56S0
G1 X-2.181S1000
G1 X-3.103S0
G1 X-2.222S1000
G1 X-0.913S0
G1 X-2.515S1000
G1 X-2.165S0
G1 X-2.116S1000
G1 X-3.571S0
G1 X-3.974S1000
G1 X-3.024S0
G1 X-1.573S1000
G1 X-0.808S0
G1 X-2.116S1000
G1 X-7.129S0
G1 X-4.138S1000
G1 X-0.24S0
G1 X0.09Y0.1S0
G1 X0.24S0
G1 X4.048S1000
G1 X7.129S0
G1 X2.116S1000
G1 X0.937S0
G1 X1.444S1000
G1 X3.244S0
G1 X3.53S1000
G1 X3.795S0
G1 X2.116S1000
G1 X2.26S0
G1 X2.522S1000
G1 X0.77S0
G1 X2.228S1000
G1 X3.172S0
G1 X2.186S1000
G1 X5.521S0
G1 X2.116S1000
G1 X0.889S0
G1 X2.974S1000
G1 X3.42S0
G1 X2.116S1000
G1 X0.937S0
G1 X1.444S1000
G1 X2.266S0
G1 X3.931S1000
G1 X3.244S0
G1 X6.363S1000
G1 X3.113S0
G1 X3.012S1000
G1 X0.865S0
G1 X2.116S1000
G1 X1.894S0
G1 X2.117S1000
G1 X0.854S0
G1 X2.776S1000
G1 X3.025S0
G1 X2.117S1000
G1 X1.991S0
G1 X2.116S1000
G1 X0.854S0
G1 X2.777S1000
G1 X0.24S0
G1 X-0.179Y0.1S0
G1 X-0.24S0
G1 X-2.41S1000
G1 X-1.042S0
G1 X-2.116S1000
G1 X-1.991S0
G1 X-2.117S1000
G1 X-3.204S0
G1 X-2.41S1000
G1 X-1.041S0
G1 X-2.117S1000
G1 X-1.894S0
G1 X-2.116S1000
G1 X-1.053S0
G1 X-2.603S1000
G1 X-3.334S0
G1 X-6.363S1000
G1 X-3.508S0
G1 X-3.309S1000
G1 X-2.624S0
G1 X-1.284S1000
G1 X-1.097S0
G1 X-2.116S1000
G1 X-3.641S0
G1 X-2.565S1000
G1 X-1.077S0
G1 X-2.116S1000
G1 X-5.481S0
G1 X-2.193S1000
G1 X-3.24S0
G1 X-2.234S1000
G1 X-0.628S0
G1 X-2.527S1000
G1 X-2.356S0
G1 X-2.116S1000
G1 X-4.046S0
G1 X-3.034S1000
G1 X-3.489S0
G1 X-1.284S1000
G1 X-1.097S0
G1 X-2.116S1000
G1 X-7.129S0
G1 X-3.957S1000
G1 X-0.24S0
G1 X0.09Y0.1S0
G1 X0.24S0
G1 X3.867S1000
G1 X7.129S0
G1 X2.116S1000
G1 X1.31S0
G1 X1.071S1000
G1 X3.789S0
G1 X2.436S1000
G1 X4.344S0
G1 X2.116S1000
G1 X2.451S0
G1 X2.533S1000
G1 X0.486S0
G1 X2.24S1000
G1 X3.309S0
G1 X2.198S1000
G1 X5.442S0
G1 X2.116S1000
G1 X1.31S0
G1 X2.053S1000
G1 X3.92S0
G1 X2.116S1000
G1 X1.31S0
G1 X1.071S1000
G1 X3.057S0
G1 X2.497S1000
G1 X3.887S0
G1 X6.363S1000
G1 X3.614S0
G1 X2.093S1000
G1 X1.283S0
G1 X2.116S1000
G1 X1.894S0
G1 X2.117S1000
G1 X1.27S0
G1 X1.942S1000
G1 X3.443S0
G1 X2.117S1000
G1 X1.991S0
G1 X2.116S1000
G1 X1.271S0
G1 X1.942S1000
G1 X0.24S0
G1 X-0.373Y0.1S0
G1 X-0.24S0
G1 X-1.224S1000
G1 X-11.656S0
G1 X-1.223S1000
G1 X-5.627S0
G1 X-2.116S1000
G1 X-1.665S0
G1 X-1.322S1000
G1 X-15.116S0
G1 X-0.659S1000
G1 X-4.032S0
G1 X-0.745S1000
G1 X-8.058S0
G1 X-1.291S1000
G1 X-22.461S0
G1 X-2.116S1000
G1 X-4.81S0
G1 X-1.501S1000
G1 X-4.258S0
G1 X-0.744S1000
G1 X-10.882S0
G1 X-3.776S1000
G1 X-0.24S0
G1 X0.09Y0.1S0
G1 X0.24S0
G1 X3.686S1000
G1 X22.195S0
G1 X2.116S1000
G1 X55.349S0
G1 X2.116S1000
G1 X0.24S0
G1 Y0.1S0
G1 X-0.24S0
G1 X-2.116S1000
G1 X-55.349S0
G1 X-2.116S1000
G1 X-22.195S0
G1 X-3.596S1000
G1 X-0.24S0
G1 X0.091Y0.1S0
G1 X0.24S0
G1 X3.505S1000
G1 X22.195S0
G1 X2.116S1000
G1 X55.349S0
G1 X2.116S1000
G1 X0.24S0
G1 Y0.1S0
G1 X-0.24S0
G1 X-2.116S1000
G1 X-55.349S0
G1 X-2.116S1000
G1 X-22.195S0
G1 X-3.415S1000
G1 X-0.24S0
G1 X0.09Y0.1S0
G1 X0.24S0
G1 X3.325S1000
G1 X22.195S0
G1 X2.116S1000
G1 X55.349S0
G1 X2.116S1000
G1 X0.24S0
G1 Y0.1S0
G1 X-0.24S0
G1 X-2.116S1000
G1 X-55.349S0
G1 X-2.116S1000
G1 X-22.195S0
G1 X-3.234S1000
G1 X-0.24S0
G1 X0.09Y0.1S0
G1 X0.24S0
G1 X3.144S1000
G1 X22.195S0
G1 X2.116S1000
G1 X55.349S0
G1 X2.116S1000
G1 X0.24S0
G1 X12.838Y0.1S0
G1 X-0.24S0
G1 X-2.227S1000
G1 X-10.611S0
G1 X-2.116S1000
G1 X-17.545S0
G1 X-1.654S1000
G1 X-36.15S0
G1 X-2.116S1000
G1 X-22.195S0
G1 X-3.054S1000
G1 X-0.24S0
G1 X0.091Y0.1S0
G1 X0.24S0
G1 X2.963S1000
G1 X22.195S0
G1 X2.116S1000
G1 X36.217S0
G1 X1.699S1000
G1 X17.433S0
G1 X2.116S1000
G1 X10.611S0
G1 X2.227S1000
G1 X0.24S0
G1 Y0.1S0
G1 X-0.24S0
G1 X-2.227S1000
G1 X-10.611S0
G1 X-2.116S1000
G1 X-17.322S0
G1 X-1.744S1000
G1 X-36.283S0
G1 X-2.116S1000
G1 X-22.195S0
G1 X-2.873S1000
G1 X-0.24S0
G1 X0.09Y0.1S0
G1 X0.24S0
G1 X2.783S1000
G1 X22.195S0
G1 X2.116S1000
G1 X36.35S0
G1 X1.789S1000
G1 X17.21S0
G1 X2.116S1000
G1 X10.611S0
G1 X2.227S1000
G1 X0.24S0
G1 Y0.1S0
G1 X-0.24S0
G1 X-2.227S1000
G1 X-10.611S0
G1 X-2.116S1000
G1 X-17.098S0
G1 X-1.834S1000
G1 X-36.417S0
G1 X-2.116S1000
G1 X-22.195S0
G1 X-2.692S1000
G1 X-0.24S0
G1 X0.09Y0.1S0
G1 X0.24S0
G1 X2.602S1000
G1 X22.195S0
G1 X2.116S1000
G1 X36.484S0
G1 X1.878S1000
G1 X16.987S0
G1 X2.116S1000
G1 X10.611S0
G1 X2.227S1000
G1 X0.24S0
G1 Y0.1S0
G1 X-0.24S0
G1 X-2.227S1000
G1 X-10.611S0
G1 X-2.116S1000
G1 X-16.875S0
G1 X-1.923S1000
G1 X-36.551S0
G1 X-2.116S1000
G1 X-22.195S0
G1 X-2.512S1000
G1 X-0.24S0
G1 X0.091Y0.1S0
G1 X0.24S0
G1 X2.421S1000
G1 X22.195S0
G1 X2.116S1000
G1 X36.618S0
G1 X1.968S1000
G1 X16.763S0
G1 X2.116S1000
G1 X10.611S0
G1 X2.227S1000
G1 X0.24S0
G1 Y0.1S0
G1 X-0.24S0
G1 X-2.227S1000
G1 X-10.611S0
G1 X-2.116S1000
G1 X-16.652S0
G1 X-2.012S1000
G1 X-36.685S0
G1 X-2.116S1000
G1 X-22.195S0
G1 X-2.331S1000
G1 X-0.24S0
G1 X0.091Y0.1S0
G1 X0.24S0
G1 X2.24S1000
G1 X22.195S0
G1 X2.116S1000
G1 X36.751S0
G1 X2.058S1000
G1 X16.54S0
G1 X2.116S1000
G1 X10.611S0
G1 X2.227S1000
G1 X0.24S0
G1 Y0.1S0
G1 X-0.24S0
G1 X-2.227S1000
G1 X-10.611S0
G1 X-2.116S1000
G1 X-16.428S0
G1 X-2.103S1000
G1 X-36.818S0
G1 X-2.116S1000
G1 X-22.195S0
G1 X-2.15S1000
G1 X-0.24S0
G1 X0.09Y0.1S0
G1 X0.24S0
G1 X2.06S1000
G1 X22.195S0
G1 X2.116S1000
G1 X36.885S0
G1 X2.147S1000
G1 X16.317S0
G1 X2.116S1000
G1 X10.611S0
G1 X2.227S1000
G1 X0.24S0
G1 Y0.1S0
G1 X-0.24S0
G1 X-2.227S1000
G1 X-10.611S0
G1 X-2.116S1000
G1 X-16.205S0
G1 X-2.192S1000
G1 X-36.952S0
G1 X-2.116S1000
G1 X-22.195S0
G1 X-1.969S1000
G1 X-0.24S0
G1 X0.09Y0.1S0
G1 X0.24S0
G1 X1.879S1000
G1 X22.195S0
G1 X2.116S1000
G1 X37.019S0
G1 X2.237S1000
G1 X16.093S0
G1 X2.116S1000
G1 X10.611S0
G1 X2.227S1000
G1 X0.24S0
G1 Y0.1S0
G1 X-0.24S0
G1 X-2.227S1000
G1 X-10.611S0
G1 X-2.116S1000
G1 X-15.981S0
G1 X-2.282S1000
G1 X-37.086S0
G1 X-2.116S1000
G1 X-0.24S0
G1 Y0.1S0
G1 X0.24S0
G1 X2.116S1000
G1 X37.152S0
G1 X2.327S1000
G1 X15.87S0
G1 X2.116S1000
G1 X10.611S0
G1 X2.227S1000
G1 X0.24S0
G1 Y0.1S0
G1 X-0.24S0
G1 X-2.227S1000
G1 X-10.611S0
G1 X-2.116S1000
G1 X-16.079S0
G1 X-2.051S1000
G1 X-37.219S0
G1 X-2.116S1000
G1 X-0.24S0
G1 Y0.1S0
G1 X0.24S0
G1 X2.116S1000
G1 X37.286S0
G1 X1.744S1000
G1 X16.319S0
G1 X2.116S1000
G1 X10.611S0
G1 X2.227S1000
G1 X0.24S0
G1 X-31.514Y0.1S0
G1 X-0.24S0
G1 X-1.436S1000
G1 X-0.24S0
G1 X0.067Y0.1S0
G1 X0.24S0
G1 X1.128S1000
G1 X0.24S0
G1 X-0.24Y0.1S0
G1 X-0.24S0
G1 X-0.821S1000
G1 X-0.24S0
G1 X0.067Y0.1S0
G1 X0.24S0
G1 X0.513S1000
G1 X0.24S0
G1 X-0.241Y0.1S0
G1 X-0.24S0
G1 X-0.206S1000
G1 X-0.24S0
G90
G0 X128.644Y50.136
G91
G1 X0.24S0
G1 X0.074S1000
G1 X0.24S0
G1 X0.147Y0.1S0
G1 X-0.24S0
G1 X-0.221S1000
G1 X-0.24S0
G1 Y0.1S0
G1 X0.24S0
G1 X0.369S1000
G1 X0.24S0
G1 X0.148Y0.1S0
G1 X-0.24S0
G1 X-0.517S1000
G1 X-0.24S0
G1 Y0.1S0
G1 X0.24S0
G1 X0.664S1000
G1 X0.24S0
G1 X0.148Y0.1S0
G1 X-0.24S0
G1 X-0.812S1000
G1 X-0.24S0
G1 Y0.1S0
G1 X0.24S0
G1 X0.959S1000
G1 X0.24S0
G1 X0.148Y0.1S0
G1 X-0.24S0
G1 X-1.107S1000
G1 X-0.24S0
G1 Y0.1S0
G1 X0.24S0
G1 X1.255S1000
G1 X0.24S0
G1 X0.147Y0.1S0
G1 X-0.24S0
G1 X-1.402S1000
G1 X-0.24S0
G1 Y0.1S0
G1 X0.24S0
G1 X1.55S1000
G1 X0.24S0
G1 X0.147Y0.1S0
G1 X-0.24S0
G1 X-1.697S1000
G1 X-0.24S0
G1 Y0.1S0
G1 X0.24S0
G1 X1.845S1000
G1 X0.24S0
G1 X0.147Y0.1S0
G1 X-0.24S0
G1 X-1.992S1000
G1 X-0.24S0
G1 Y0.1S0
G1 X0.24S0
G1 X2.14S1000
G1 X0.24S0
G1 X0.148Y0.1S0
G1 X-0.24S0
G1 X-2.288S1000
G1 X-0.24S0
G1 Y0.1S0
G1 X0.24S0
G1 X2.435S1000
G1 X0.24S0
G1 X0.148Y0.1S0
G1 X-0.24S0
G1 X-2.583S1000
G1 X-0.24S0
G1 Y0.1S0
G1 X0.24S0
G1 X2.73S1000
G1 X0.24S0
G1 X0.148Y0.1S0
G1 X-0.24S0
G1 X-2.878S1000
G1 X-0.24S0
G1 Y0.1S0
G1 X0.24S0
G1 X3.026S1000
G1 X0.24S0
G1 X0.147Y0.1S0
G1 X-0.24S0
G1 X-3.173S1000
G1 X-0.24S0
G1 Y0.1S0
G1 X0.24S0
G1 X3.321S1000
G1 X0.24S0
G1 X0.147Y0.1S0
G1 X-0.24S0
G1 X-3.468S1000
G1 X-0.24S0
G1 Y0.1S0
G1 X0.24S0
G1 X3.616S1000
G1 X0.24S0
G1 X0.148Y0.1S0
G1 X-0.24S0
G1 X-3.764S1000
G1 X-0.24S0
G1 Y0.1S0
G1 X0.24S0
G1 X3.911S1000
G1 X0.24S0
G1 X0.148Y0.1S0
G1 X-0.24S0
G1 X-4.059S1000
G1 X-0.24S0
G1 Y0.1S0
G1 X0.24S0
G1 X4.206S1000
G1 X0.24S0
G1 X0.148Y0.1S0
G1 X-0.24S0
G1 X-4.354S1000
G1 X-0.24S0
G1 Y0.1S0
G1 X0.24S0
G1 X4.501S1000
G1 X0.24S0
G1 X0.148Y0.1S0
G1 X-0.24S0
G1 X-4.649S1000
G1 X-0.24S0
G1 Y0.1S0
G1 X0.24S0
G1 X4.797S1000
G1 X0.24S0
G1 X0.147Y0.1S0
G1 X-0.24S0
G1 X-4.944S1000
G1 X-0.24S0
G1 Y0.1S0
G1 X0.24S0
G1 X5.092S1000
G1 X0.24S0
G1 X0.147Y0.1S0
G1 X-0.24S0
G1 X-5.239S1000
G1 X-0.24S0
G1 Y0.1S0
G1 X0.24S0
G1 X5.387S1000
G1 X0.24S0
G1 X0.148Y0.1S0
G1 X-0.24S0
G1 X-5.535S1000
G1 X-0.24S0
G1 Y0.1S0
G1 X0.24S0
G1 X5.682S1000
G1 X0.24S0
G1 X0.148Y0.1S0
G1 X-0.24S0
G1 X-5.83S1000
G1 X-0.24S0
G1 Y0.1S0
G1 X0.24S0
G1 X5.977S1000
G1 X0.24S0
G1 X0.148Y0.1S0
G1 X-0.24S0
G1 X-6.125S1000
G1 X-0.24S0
G1 Y0.1S0
G1 X0.24S0
G1 X6.273S1000
G1 X0.24S0
G1 X0.147Y0.1S0
G1 X-0.24S0
G1 X-6.42S1000
G1 X-0.24S0
G1 Y0.1S0
G1 X0.24S0
G1 X6.568S1000
G1 X0.24S0
G1 X0.147Y0.1S0
G1 X-0.24S0
G1 X-6.715S1000
G1 X-0.24S0
G1 Y0.1S0
G1 X0.24S0
G1 X6.863S1000
G1 X0.24S0
G1 X0.147Y0.1S0
G1 X-0.24S0
G1 X-7.01S1000
G1 X-0.24S0
G1 Y0.1S0
G1 X0.24S0
G1 X7.158S1000
G1 X0.24S0
G1 X0.148Y0.1S0
G1 X-0.24S0
G1 X-7.306S1000
G1 X-0.24S0
G1 Y0.1S0
G1 X0.24S0
G1 X7.453S1000
G1 X0.24S0
G1 X0.148Y0.1S0
G1 X-0.24S0
G1 X-7.601S1000
G1 X-0.24S0
G1 Y0.1S0
G1 X0.24S0
G1 X7.748S1000
G1 X0.24S0
G1 X0.148Y0.1S0
G1 X-0.24S0
G1 X-7.896S1000
G1 X-0.24S0
G1 Y0.1S0
G1 X0.24S0
G1 X8.044S1000
G1 X0.24S0
G1 X0.147Y0.1S0
G1 X-0.24S0
G1 X-8.191S1000
G1 X-0.24S0
G1 Y0.1S0
G1 X0.24S0
G1 X8.339S1000
G1 X0.24S0
G1 X0.147Y0.1S0
G1 X-0.24S0
G1 X-8.486S1000
G1 X-0.24S0
G1 Y0.1S0
G1 X0.24S0
G1 X8.634S1000
G1 X0.24S0
G1 X0.148Y0.1S0
G1 X-0.24S0
G1 X-8.782S1000
G1 X-0.24S0
G1 Y0.1S0
G1 X0.24S0
G1 X8.929S1000
G1 X0.24S0
G1 X0.148Y0.1S0
G1 X-0.24S0
G1 X-9.077S1000
G1 X-0.24S0
G1 Y0.1S0
G1 X0.24S0
G1 X9.036S1000
G1 X0.24S0
G1 X-0.157Y0.1S0
G1 X-0.24S0
G1 X-8.879S1000
G1 X-0.24S0
G1 Y0.1S0
G1 X0.24S0
G1 X8.722S1000
G1 X0.24S0
G1 X-0.157Y0.1S0
G1 X-0.24S0
G1 X-8.565S1000
G1 X-0.24S0
G1 Y0.1S0
G1 X0.24S0
G1 X8.408S1000
G1 X0.24S0
G1 X-0.157Y0.1S0
G1 X-0.24S0
G1 X-8.251S1000
G1 X-0.24S0
G1 Y0.1S0
G1 X0.24S0
G1 X8.094S1000
G1 X0.24S0
G1 X-0.158Y0.1S0
G1 X-0.24S0
G1 X-7.936S1000
G1 X-0.24S0
G1 Y0.1S0
G1 X0.24S0
G1 X7.779S1000
G1 X0.24S0
G1 X-0.157Y0.1S0
G1 X-0.24S0
G1 X-7.622S1000
G1 X-0.24S0
G1 Y0.1S0
G1 X0.24S0
G1 X7.465S1000
G1 X0.24S0
G1 X-0.157Y0.1S0
G1 X-0.24S0
G1 X-7.308S1000
G1 X-0.24S0
G1 Y0.1S0
G1 X0.24S0
G1 X7.151S1000
G1 X0.24S0
G1 X-0.158Y0.1S0
G1 X-0.24S0
G1 X-6.993S1000
G1 X-0.24S0
G1 Y0.1S0
G1 X0.24S0
G1 X6.836S1000
G1 X0.24S0
G1 X-0.157Y0.1S0
G1 X-0.24S0
G1 X-6.679S1000
G1 X-0.24S0
G1 Y0.1S0
G1 X0.24S0
G1 X6.522S1000
G1 X0.24S0
G1 X-0.157Y0.1S0
G1 X-0.24S0
G1 X-6.365S1000
G1 X-0.24S0
G1 Y0.1S0
G1 X0.24S0
G1 X6.208S1000
G1 X0.24S0
G1 X-0.157Y0.1S0
G1 X-0.241S0
G1 X-6.05S1000
G1 X-0.24S0
G1 Y0.1S0
G1 X0.24S0
G1 X5.893S1000
G1 X0.24S0
G1 X-0.157Y0.1S0
G1 X-0.24S0
G1 X-5.736S1000
G1 X-0.24S0
G1 Y0.1S0
G1 X0.24S0
G1 X5.579S1000
G1 X0.24S0
G1 X-0.157Y0.1S0
G1 X-0.24S0
G1 X-5.422S1000
G1 X-0.24S0
G1 Y0.1S0
G1 X0.24S0
G1 X5.265S1000
G1 X0.24S0
G1 X-0.157Y0.1S0
G1 X-0.24S0
G1 X-5.108S1000
G1 X-0.24S0
G1 Y0.1S0
G1 X0.24S0
G1 X4.95S1000
G1 X0.24S0
G1 X-0.157Y0.1S0
G1 X-0.24S0
G1 X-4.793S1000
G1 X-0.24S0
G1 Y0.1S0
G1 X0.24S0
G1 X4.636S1000
G1 X0.24S0
G1 X-0.157Y0.1S0
G1 X-0.24S0
G1 X-4.479S1000
G1 X-0.24S0
G1 Y0.1S0
G1 X0.24S0
G1 X4.322S1000
G1 X0.24S0
G1 X-0.157Y0.1S0
G1 X-0.24S0
G1 X-4.165S1000
G1 X-0.24S0
G1 Y0.1S0
G1 X0.24S0
G1 X4.007S1000
G1 X0.24S0
G1 X-0.157Y0.1S0
G1 X-0.24S0
G1 X-3.85S1000
G1 X-0.24S0
G1 Y0.1S0
G1 X0.24S0
G1 X3.693S1000
G1 X0.24S0
G1 X-0.157Y0.1S0
G1 X-0.24S0
G1 X-3.536S1000
G1 X-0.24S0
G1 Y0.1S0
G1 X0.24S0
G1 X3.379S1000
G1 X0.24S0
G1 X-0.157Y0.1S0
G1 X-0.24S0
G1 X-3.222S1000
G1 X-0.24S0
G1 Y0.1S0
G1 X0.24S0
G1 X3.065S1000
G1 X0.24S0
G1 X-0.158Y0.1S0
G1 X-0.24S0
G1 X-2.907S1000
G1 X-0.24S0
G1 Y0.1S0
G1 X0.24S0
G1 X2.75S1000
G1 X0.24S0
G1 X-0.157Y0.1S0
G1 X-0.24S0
G1 X-2.593S1000
G1 X-0.24S0
G1 Y0.1S0
G1 X0.24S0
G1 X2.436S1000
G1 X0.24S0
G1 X-0.157Y0.1S0
G1 X-0.24S0
G1 X-2.279S1000
G1 X-0.24S0
G1 Y0.1S0
G1 X0.24S0
G1 X2.122S1000
G1 X0.24S0
G1 X-0.158Y0.1S0
G1 X-0.24S0
G1 X-1.964S1000
G1 X-0.24S0
G1 Y0.1S0
G1 X0.24S0
G1 X1.807S1000
G1 X0.24S0
G1 X-0.157Y0.1S0
G1 X-0.24S0
G1 X-1.65S1000
G1 X-0.24S0
G1 Y0.1S0
G1 X0.24S0
G1 X1.493S1000
G1 X0.24S0
G1 X-0.157Y0.1S0
G1 X-0.24S0
G1 X-1.336S1000
G1 X-0.24S0
G1 Y0.1S0
G1 X0.24S0
G1 X1.179S1000
G1 X0.24S0
G1 X-0.157Y0.1S0
G1 X-0.24S0
G1 X-1.022S1000
G1 X-0.24S0
G1 Y0.1S0
G1 X0.24S0
G1 X0.864S1000
G1 X0.24S0
G1 X-0.157Y0.1S0
G1 X-0.24S0
G1 X-0.707S1000
G1 X-0.24S0
G1 Y0.1S0
G1 X0.24S0
G1 X0.55S1000
G1 X0.24S0
G1 X-0.157Y0.1S0
G1 X-0.24S0
G1 X-0.393S1000
G1 X-0.24S0
G1 Y0.1S0
G1 X0.24S0
G1 X0.236S1000
G1 X0.24S0
G1 X-0.157Y0.1S0
G1 X-0.24S0
G1 X-0.079S1000
G1 X-0.24S0
G90
G0 X99.218Y47.621
G91
G1 X0.24S0
G1 X0.66S1000
G1 X0.24S0
G1 X1.027Y0.1S0
G1 X-0.24S0
G1 X-2.714S1000
G1 X-0.24S0
G1 X-0.548Y0.1S0
G1 X0.24S0
G1 X3.81S1000
G1 X0.24S0
G1 X0.388Y0.1S0
G1 X-0.24S0
G1 X-4.586S1000
G1 X-0.24S0
G1 X-0.358Y0.1S0
G1 X0.24S0
G1 X5.302S1000
G1 X0.24S0
G1 X0.273Y0.1S0
G1 X-0.24S0
G1 X-5.848S1000
G1 X-0.24S0
G1 X-0.274Y0.1S0
G1 X0.24S0
G1 X6.396S1000
G1 X0.24S0
G1 X0.249Y0.1S0
G1 X-0.24S0
G1 X-6.894S1000
G1 X-0.24S0
G1 X-0.208Y0.1S0
G1 X0.24S0
G1 X7.31S1000
G1 X0.24S0
G1 X0.208Y0.1S0
G1 X-0.24S0
G1 X-7.726S1000
G1 X-0.24S0
G1 X-0.207Y0.1S0
G1 X0.24S0
G1 X8.14S1000
G1 X0.24S0
G1 X0.177Y0.1S0
G1 X-0.24S0
G1 X-8.494S1000
G1 X-0.24S0
G1 X-0.165Y0.1S0
G1 X0.24S0
G1 X8.824S1000
G1 X0.24S0
G1 X0.165Y0.1S0
G1 X-0.24S0
G1 X-9.154S1000
G1 X-0.24S0
G1 X-0.164Y0.1S0
G1 X0.24S0
G1 X9.482S1000
G1 X0.24S0
G1 X0.153Y0.1S0
G1 X-0.24S0
G1 X-9.788S1000
G1 X-0.24S0
G1 X-0.134Y0.1S0
G1 X0.24S0
G1 X10.056S1000
G1 X0.24S0
G1 X0.134Y0.1S0
G1 X-0.24S0
G1 X-10.324S1000
G1 X-0.24S0
G1 X-0.134Y0.1S0
G1 X0.24S0
G1 X10.592S1000
G1 X0.24S0
G1 X0.133Y0.1S0
G1 X-0.24S0
G1 X-10.858S1000
G1 X-0.24S0
G1 X-0.125Y0.1S0
G1 X0.24S0
G1 X11.108S1000
G1 X0.24S0
G1 X0.11Y0.1S0
G1 X-0.24S0
G1 X-11.328S1000
G1 X-0.24S0
G1 X-0.11Y0.1S0
G1 X0.24S0
G1 X11.548S1000
G1 X0.24S0
G1 X0.11Y0.1S0
G1 X-0.24S0
G1 X-11.768S1000
G1 X-0.24S0
G1 X-0.11Y0.1S0
G1 X0.24S0
G1 X11.988S1000
G1 X0.24S0
G1 X0.11Y0.1S0
G1 X-0.24S0
G1 X-12.208S1000
G1 X-0.24S0
G1 X-0.095Y0.1S0
G1 X0.24S0
G1 X12.398S1000
G1 X0.24S0
G1 X0.091Y0.1S0
G1 X-0.24S0
G1 X-12.58S1000
G1 X-0.24S0
G1 X-0.091Y0.1S0
G1 X0.24S0
G1 X12.762S1000
G1 X0.24S0
G1 X0.091Y0.1S0
G1 X-0.24S0
G1 X-12.944S1000
G1 X-0.24S0
G1 X-0.091Y0.1S0
G1 X0.24S0
G1 X13.126S1000
G1 X0.24S0
G1 X0.091Y0.1S0
G1 X-0.24S0
G1 X-13.308S1000
G1 X-0.24S0
G1 X-0.081Y0.1S0
G1 X0.24S0
G1 X13.47S1000
G1 X0.24S0
G1 X0.074Y0.1S0
G1 X-0.24S0
G1 X-13.618S1000
G1 X-0.24S0
G1 X-0.075Y0.1S0
G1 X0.24S0
G1 X13.768S1000
G1 X0.24S0
G1 X0.075Y0.1S0
G1 X-0.24S0
G1 X-13.918S1000
G1 X-0.24S0
G1 X-0.075Y0.1S0
G1 X0.24S0
G1 X14.068S1000
G1 X0.24S0
G1 X0.074Y0.1S0
G1 X-0.24S0
G1 X-14.216S1000
G1 X-0.24S0
G1 X-0.075Y0.1S0
G1 X0.24S0
G1 X14.366S1000
G1 X0.24S0
G1 X0.062Y0.1S0
G1 X-0.24S0
G1 X-5.116S1000
G1 X-0.897S0
G1 X-2.769S1000
G1 X-0.506S0
G1 X-5.202S1000
G1 X-0.24S0
G1 X-0.06Y0.1S0
G1 X0.24S0
G1 X4.999S1000
G1 X1.032S0
G1 X2.324S1000
G1 X1.261S0
G1 X4.994S1000
G1 X0.24S0
G1 X0.061Y0.1S0
G1 X-0.24S0
G1 X-4.934S1000
G1 X-1.504S0
G1 X-2.043S1000
G1 X-1.35S0
G1 X-4.901S1000
G1 X-0.24S0
G1 X-0.061Y0.1S0
G1 X0.24S0
G1 X4.842S1000
G1 X1.59S0
G1 X1.828S1000
G1 X1.694S0
G1 X4.9S1000
G1 X0.24S0
G1 X0.061Y0.1S0
G1 X-0.24S0
G1 X-4.879S1000
G1 X-1.858S0
G1 X-1.664S1000
G1 X-1.754S0
G1 X-4.821S1000
G1 X-0.24S0
G1 X-0.06Y0.1S0
G1 X0.24S0
G1 X4.809S1000
G1 X1.898S0
G1 X1.538S1000
G1 X1.966S0
G1 X4.885S1000
G1 X0.24S0
G1 X0.061Y0.1S0
G1 X-0.24S0
G1 X-4.894S1000
G1 X-2.069S0
G1 X-1.433S1000
G1 X-2.006S0
G1 X-4.816S1000
G1 X-0.24S0
G1 X-0.051Y0.1S0
G1 X0.24S0
G1 X4.824S1000
G1 X2.092S0
G1 X1.359S1000
G1 X2.131S0
G1 X4.914S1000
G1 X0.24S0
G1 X0.048Y0.1S0
G1 X-0.24S0
G1 X-4.932S1000
G1 X-2.192S0
G1 X-1.297S1000
G1 X-2.154S0
G1 X-4.841S1000
G1 X-0.24S0
G1 X-0.048Y0.1S0
G1 X0.24S0
G1 X4.866S1000
G1 X2.2S0
G1 X1.264S1000
G1 X2.212S0
G1 X4.97S1000
G1 X0.24S0
G1 X0.048Y0.1S0
G1 X-0.24S0
G1 X-5.008S1000
G1 X-2.232S0
G1 X-1.244S1000
G1 X-2.22S0
G1 X-4.904S1000
G1 X-0.24S0
G1 X-0.048Y0.1S0
G1 X0.24S0
G1 X4.944S1000
G1 X2.237S0
G1 X1.233S1000
G1 X2.237S0
G1 X5.053S1000
G1 X0.24S0
G1 X0.049Y0.1S0
G1 X-0.24S0
G1 X-5.102S1000
G1 X-2.237S0
G1 X-1.233S1000
G1 X-2.237S0
G1 X-4.993S1000
G1 X-0.24S0
G1 X-0.048Y0.1S0
G1 X0.24S0
G1 X5.041S1000
G1 X2.237S0
G1 X1.233S1000
G1 X2.237S0
G1 X5.15S1000
G1 X0.24S0
G1 X0.045Y0.1S0
G1 X-0.24S0
G1 X-5.195S1000
G1 X-2.237S0
G1 X-1.233S1000
G1 X-2.237S0
G1 X-5.086S1000
G1 X-0.24S0
G1 X-0.037Y0.1S0
G1 X0.24S0
G1 X5.123S1000
G1 X2.237S0
G1 X1.233S1000
G1 X2.237S0
G1 X5.232S1000
G1 X0.24S0
G1 X0.036Y0.1S0
G1 X-0.24S0
G1 X-5.268S1000
G1 X-2.237S0
G1 X-1.233S1000
G1 X-2.237S0
G1 X-5.159S1000
G1 X-0.24S0
G1 X-0.037Y0.1S0
G1 X0.24S0
G1 X5.196S1000
G1 X2.237S0
G1 X1.233S1000
G1 X2.237S0
G1 X5.305S1000
G1 X0.24S0
G1 X0.037Y0.1S0
G1 X-0.24S0
G1 X-5.342S1000
G1 X-2.237S0
G1 X-1.233S1000
G1 X-2.237S0
G1 X-5.233S1000
G1 X-0.24S0
G1 X-0.036Y0.1S0
G1 X0.24S0
G1 X5.269S1000
G1 X2.237S0
G1 X1.233S1000
G1 X2.237S0
G1 X5.378S1000
G1 X0.24S0
G1 X0.037Y0.1S0
G1 X-0.24S0
G1 X-5.415S1000
G1 X-2.237S0
G1 X-1.233S1000
G1 X-2.237S0
G1 X-5.306S1000
G1 X-0.24S0
G1 X-0.036Y0.1S0
G1 X0.24S0
G1 X5.342S1000
G1 X2.237S0
G1 X1.233S1000
G1 X2.237S0
G1 X5.451S1000
G1 X0.24S0
G1 X0.034Y0.1S0
G1 X-0.24S0
G1 X-5.485S1000
G1 X-2.237S0
G1 X-1.233S1000
G1 X-2.237S0
G1 X-5.376S1000
G1 X-0.24S0
G1 X-0.026Y0.1S0
G1 X0.24S0
G1 X5.402S1000
G1 X2.237S0
G1 X1.233S1000
G1 X2.237S0
G1 X5.511S1000
G1 X0.24S0
G1 X0.025Y0.1S0
G1 X-0.24S0
G1 X-5.536S1000
G1 X-2.237S0
G1 X-1.233S1000
G1 X-2.237S0
G1 X-5.427S1000
G1 X-0.24S0
G1 X-0.026Y0.1S0
G1 X0.24S0
G1 X5.453S1000
G1 X2.237S0
G1 X1.233S1000
G1 X2.237S0
G1 X5.562S1000
G1 X0.24S0
G1 X0.026Y0.1S0
G1 X-0.24S0
G1 X-5.588S1000
G1 X-2.237S0
G1 X-1.233S1000
G1 X-2.237S0
G1 X-5.479S1000
G1 X-0.24S0
G1 X-0.026Y0.1S0
G1 X0.24S0
G1 X5.505S1000
G1 X2.237S0
G1 X1.233S1000
G1 X2.237S0
G1 X5.614S1000
G1 X0.24S0
G1 X0.025Y0.1S0
G1 X-0.24S0
G1 X-5.639S1000
G1 X-2.237S0
G1 X-1.233S1000
G1 X-2.237S0
G1 X-5.53S1000
G1 X-0.24S0
G1 X-0.026Y0.1S0
G1 X0.24S0
G1 X5.556S1000
G1 X2.237S0
G1 X1.233S1000
G1 X2.237S0
G1 X5.665S1000
G1 X0.24S0
G1 X0.026Y0.1S0
G1 X-0.24S0
G1 X-5.691S1000
G1 X-2.237S0
G1 X-1.233S1000
G1 X-2.237S0
G1 X-5.582S1000
G1 X-0.24S0
G1 X-0.015Y0.1S0
G1 X0.24S0
G1 X5.597S1000
G1 X2.237S0
G1 X1.233S1000
G1 X2.237S0
G1 X5.706S1000
G1 X0.24S0
G1 X0.016Y0.1S0
G1 X-0.24S0
G1 X-5.722S1000
G1 X-2.237S0
G1 X-1.233S1000
G1 X-2.237S0
G1 X-5.613S1000
G1 X-0.24S0
G1 X-0.015Y0.1S0
G1 X0.24S0
G1 X5.628S1000
G1 X2.237S0
G1 X1.233S1000
G1 X2.237S0
G1 X5.737S1000
G1 X0.24S0
G1 X0.015Y0.1S0
G1 X-0.24S0
G1 X-5.752S1000
G1 X-2.237S0
G1 X-1.233S1000
G1 X-2.237S0
G1 X-5.643S1000
G1 X-0.24S0
G1 X-0.015Y0.1S0
G1 X0.24S0
G1 X5.658S1000
G1 X2.237S0
G1 X1.233S1000
G1 X2.237S0
G1 X5.767S1000
G1 X0.24S0
G1 X0.016Y0.1S0
G1 X-0.24S0
G1 X-5.783S1000
G1 X-2.237S0
G1 X-1.233S1000
G1 X-2.237S0
G1 X-5.674S1000
G1 X-0.24S0
G1 X-0.015Y0.1S0
G1 X0.24S0
G1 X5.689S1000
G1 X2.237S0
G1 X1.233S1000
G1 X2.237S0
G1 X5.798S1000
G1 X0.24S0
G1 X0.015Y0.1S0
G1 X-0.24S0
G1 X-5.813S1000
G1 X-2.237S0
G1 X-1.233S1000
G1 X-2.237S0
G1 X-5.704S1000
G1 X-0.24S0
G1 X-0.012Y0.1S0
G1 X0.24S0
G1 X5.716S1000
G1 X2.237S0
G1 X1.233S1000
G1 X2.237S0
G1 X5.825S1000
G1 X0.24S0
G1 Y0.1S0
G1 X-0.235S0
G1 X-5.83S1000
G1 X-2.237S0
G1 X-1.233S1000
G1 X-2.237S0
G1 X-5.721S1000
G1 X-0.24S0
G1 Y0.1S0
G1 X0.235S0
G1 X5.726S1000
G1 X2.237S0
G1 X1.233S1000
G1 X2.237S0
G1 X5.835S1000
G1 X0.24S0
G1 Y0.1S0
G1 X-0.235S0
G1 X-5.84S1000
G1 X-2.237S0
G1 X-1.233S1000
G1 X-2.237S0
G1 X-5.731S1000
G1 X-0.24S0
G1 Y0.1S0
G1 X0.235S0
G1 X5.736S1000
G1 X2.237S0
G1 X1.233S1000
G1 X2.237S0
G1 X5.845S1000
G1 X0.24S0
G1 X0.005Y0.1S0
G1 X-0.24S0
G1 X-5.85S1000
G1 X-2.237S0
G1 X-1.233S1000
G1 X-2.237S0
G1 X-5.741S1000
G1 X-0.24S0
G1 X-0.005Y0.1S0
G1 X0.24S0
G1 X5.746S1000
G1 X2.237S0
G1 X1.233S1000
G1 X2.237S0
G1 X5.855S1000
G1 X0.24S0
G1 X0.005Y0.1S0
G1 X-0.24S0
G1 X-5.86S1000
G1 X-2.237S0
G1 X-1.233S1000
G1 X-2.237S0
G1 X-5.751S1000
G1 X-0.24S0
G1 X-0.005Y0.1S0
G1 X0.24S0
G1 X5.756S1000
G1 X2.237S0
G1 X1.233S1000
G1 X2.237S0
G1 X5.865S1000
G1 X0.24S0
G1 Y0.1S0
G1 X-0.24S0
G1 X-5.865S1000
G1 X-2.237S0
G1 X-1.233S1000
G1 X-2.237S0
G1 X-5.756S1000
G1 X-0.24S0
G1 Y0.1S0
G1 X0.245S0
G1 X5.751S1000
G1 X2.237S0
G1 X1.233S1000
G1 X2.237S0
G1 X5.86S1000
G1 X0.24S0
G1 Y0.1S0
G1 X-0.245S0
G1 X-5.855S1000
G1 X-2.237S0
G1 X-1.233S1000
G1 X-2.237S0
G1 X-5.746S1000
G1 X-0.24S0
G1 X0.005Y0.1S0
G1 X0.24S0
G1 X5.741S1000
G1 X2.237S0
G1 X1.233S1000
G1 X2.237S0
G1 X5.85S1000
G1 X0.24S0
G1 X-0.005Y0.1S0
G1 X-0.24S0
G1 X-5.845S1000
G1 X-2.237S0
G1 X-1.233S1000
G1 X-2.237S0
G1 X-5.736S1000
G1 X-0.24S0
G1 X0.005Y0.1S0
G1 X0.24S0
G1 X5.731S1000
G1 X2.237S0
G1 X1.233S1000
G1 X2.237S0
G1 X5.84S1000
G1 X0.24S0
G1 X-0.005Y0.1S0
G1 X-0.24S0
G1 X-5.835S1000
G1 X-2.237S0
G1 X-1.233S1000
G1 X-2.237S0
G1 X-5.726S1000
G1 X-0.24S0
G1 X0.005Y0.1S0
G1 X0.24S0
G1 X5.721S1000
G1 X2.237S0
G1 X1.233S1000
G1 X2.237S0
G1 X5.83S1000
G1 X0.24S0
G1 X-0.005Y0.1S0
G1 X-0.24S0
G1 X-5.825S1000
G1 X-2.237S0
G1 X-1.233S1000
G1 X-2.237S0
G1 X-5.716S1000
G1 X-0.24S0
G1 X0.012Y0.1S0
G1 X0.24S0
G1 X5.704S1000
G1 X2.237S0
G1 X1.233S1000
G1 X2.237S0
G1 X5.813S1000
G1 X0.24S0
G1 X-0.015Y0.1S0
G1 X-0.24S0
G1 X-5.798S1000
G1 X-2.237S0
G1 X-1.233S1000
G1 X-2.237S0
G1 X-5.689S1000
G1 X-0.24S0
G1 X0.015Y0.1S0
G1 X0.24S0
G1 X5.674S1000
G1 X2.237S0
G1 X1.233S1000
G1 X2.237S0
G1 X5.783S1000
G1 X0.24S0
G1 X-0.016Y0.1S0
G1 X-0.24S0
G1 X-5.767S1000
G1 X-2.237S0
G1 X-1.233S1000
G1 X-2.237S0
G1 X-5.658S1000
G1 X-0.24S0
G1 X0.015Y0.1S0
G1 X0.24S0
G1 X5.643S1000
G1 X2.237S0
G1 X1.233S1000
G1 X2.237S0
G1 X5.752S1000
G1 X0.24S0
G1 X-0.015Y0.1S0
G1 X-0.24S0
G1 X-5.737S1000
G1 X-2.237S0
G1 X-1.233S1000
G1 X-2.237S0
G1 X-5.628S1000
G1 X-0.24S0
G1 X0.015Y0.1S0
G1 X0.24S0
G1 X5.613S1000
G1 X2.237S0
G1 X1.233S1000
G1 X2.237S0
G1 X5.722S1000
G1 X0.24S0
G1 X-0.016Y0.1S0
G1 X-0.24S0
G1 X-5.706S1000
G1 X-2.237S0
G1 X-1.233S1000
G1 X-2.237S0
G1 X-5.597S1000
G1 X-0.24S0
G1 X0.015Y0.1S0
G1 X0.24S0
G1 X5.582S1000
G1 X2.237S0
G1 X1.233S1000
G1 X2.237S0
G1 X5.691S1000
G1 X0.24S0
G1 X-0.026Y0.1S0
G1 X-0.24S0
G1 X-5.665S1000
G1 X-2.237S0
G1 X-1.233S1000
G1 X-2.237S0
G1 X-5.556S1000
G1 X-0.24S0
G1 X0.026Y0.1S0
G1 X0.24S0
G1 X5.53S1000
G1 X2.237S0
G1 X1.233S1000
G1 X2.237S0
G1 X5.639S1000
G1 X0.24S0
G1 X-0.025Y0.1S0
G1 X-0.24S0
G1 X-5.614S1000
G1 X-2.237S0
G1 X-1.233S1000
G1 X-2.237S0
G1 X-5.505S1000
G1 X-0.24S0
G1 X0.026Y0.1S0
G1 X0.24S0
G1 X5.479S1000
G1 X2.237S0
G1 X1.233S1000
G1 X2.237S0
G1 X5.588S1000
G1 X0.24S0
G1 X-0.026Y0.1S0
G1 X-0.24S0
G1 X-5.562S1000
G1 X-2.237S0
G1 X-1.233S1000
G1 X-2.237S0
G1 X-5.453S1000
G1 X-0.24S0
G1 X0.026Y0.1S0
G1 X0.24S0
G1 X5.427S1000
G1 X2.237S0
G1 X1.233S1000
G1 X2.237S0
G1 X5.536S1000
G1 X0.24S0
G1 X-0.025Y0.1S0
G1 X-0.24S0
G1 X-5.511S1000
G1 X-2.237S0
G1 X-1.233S1000
G1 X-2.237S0
G1 X-5.402S1000
G1 X-0.24S0
G1 X0.026Y0.1S0
G1 X0.24S0
G1 X5.376S1000
G1 X2.237S0
G1 X1.233S1000
G1 X2.237S0
G1 X5.485S1000
G1 X0.24S0
G1 X-0.034Y0.1S0
G1 X-0.24S0
G1 X-5.451S1000
G1 X-2.237S0
G1 X-1.233S1000
G1 X-2.237S0
G1 X-5.342S1000
G1 X-0.24S0
G1 X0.036Y0.1S0
G1 X0.24S0
G1 X5.306S1000
G1 X2.237S0
G1 X1.233S1000
G1 X2.237S0
G1 X5.415S1000
G1 X0.24S0
G1 X-0.037Y0.1S0
G1 X-0.24S0
G1 X-5.378S1000
G1 X-2.237S0
G1 X-1.233S1000
G1 X-2.237S0
G1 X-5.269S1000
G1 X-0.24S0
G1 X0.036Y0.1S0
G1 X0.24S0
G1 X5.233S1000
G1 X2.237S0
G1 X1.233S1000
G1 X2.237S0
G1 X5.342S1000
G1 X0.24S0
G1 X-0.037Y0.1S0
G1 X-0.24S0
G1 X-5.305S1000
G1 X-2.237S0
G1 X-1.233S1000
G1 X-2.237S0
G1 X-5.196S1000
G1 X-0.24S0
G1 X0.037Y0.1S0
G1 X0.24S0
G1 X5.159S1000
G1 X2.237S0
G1 X1.233S1000
G1 X2.237S0
G1 X5.268S1000
G1 X0.24S0
G1 X-0.036Y0.1S0
G1 X-0.24S0
G1 X-5.232S1000
G1 X-2.237S0
G1 X-1.233S1000
G1 X-2.237S0
G1 X-5.123S1000
G1 X-0.24S0
G1 X0.037Y0.1S0
G1 X0.24S0
G1 X5.086S1000
G1 X2.237S0
G1 X1.233S1000
G1 X2.237S0
G1 X5.195S1000
G1 X0.24S0
G1 X-0.045Y0.1S0
G1 X-0.24S0
G1 X-5.15S1000
G1 X-2.237S0
G1 X-1.233S1000
G1 X-2.237S0
G1 X-5.041S1000
G1 X-0.24S0
G1 X0.048Y0.1S0
G1 X0.24S0
G1 X4.993S1000
G1 X2.237S0
G1 X1.233S1000
G1 X2.237S0
G1 X5.102S1000
G1 X0.24S0
G1 X-0.049Y0.1S0
G1 X-0.24S0
G1 X-5.053S1000
G1 X-2.237S0
G1 X-1.233S1000
G1 X-2.237S0
G1 X-4.944S1000
G1 X-0.24S0
G1 X0.048Y0.1S0
G1 X0.24S0
G1 X4.896S1000
G1 X2.237S0
G1 X1.235S1000
G1 X2.233S0
G1 X5.007S1000
G1 X0.24S0
G1 X-0.048Y0.1S0
G1 X-0.24S0
G1 X-4.969S1000
G1 X-2.213S0
G1 X-1.251S1000
G1 X-2.226S0
G1 X-4.853S1000
G1 X-0.24S0
G1 X0.048Y0.1S0
G1 X0.24S0
G1 X4.815S1000
G1 X2.206S0
G1 X1.271S1000
G1 X2.193S0
G1 X4.931S1000
G1 X0.24S0
G1 X-0.048Y0.1S0
G1 X-0.24S0
G1 X-4.913S1000
G1 X-2.134S0
G1 X-1.316S1000
G1 X-2.174S0
G1 X-4.783S1000
G1 X-0.24S0
G1 X0.051Y0.1S0
G1 X0.24S0
G1 X4.763S1000
G1 X2.112S0
G1 X1.378S1000
G1 X2.072S0
G1 X4.893S1000
G1 X0.24S0
G1 X-0.061Y0.1S0
G1 X-0.24S0
G1 X-4.882S1000
G1 X-1.972S0
G1 X-1.464S1000
G1 X-2.04S0
G1 X-4.738S1000
G1 X-0.24S0
G1 X0.06Y0.1S0
G1 X0.24S0
G1 X4.732S1000
G1 X1.932S0
G1 X1.572S1000
G1 X1.864S0
G1 X4.876S1000
G1 X0.24S0
G1 X-0.061Y0.1S0
G1 X-0.24S0
G1 X-4.895S1000
G1 X-1.703S0
G1 X-1.715S1000
G1 X-1.807S0
G1 X-4.734S1000
G1 X-0.24S0
G1 X0.061Y0.1S0
G1 X0.24S0
G1 X4.755S1000
G1 X1.642S0
G1 X1.891S1000
G1 X1.516S0
G1 X4.928S1000
G1 X0.24S0
G1 X-0.061Y0.1S0
G1 X-0.24S0
G1 X-4.988S1000
G1 X-1.274S0
G1 X-2.119S1000
G1 X-1.428S0
G1 X-4.801S1000
G1 X-0.24S0
G1 X0.06Y0.1S0
G1 X0.24S0
G1 X4.88S1000
G1 X1.15S0
G1 X2.437S1000
G1 X0.916S0
G1 X5.107S1000
G1 X0.24S0
G1 X-0.062Y0.1S0
G1 X-0.24S0
G1 X-8.618S1000
G1 X-0.71S0
G1 X-5.038S1000
G1 X-0.24S0
G1 X0.075Y0.1S0
G1 X0.24S0
G1 X14.216S1000
G1 X0.24S0
G1 X-0.074Y0.1S0
G1 X-0.24S0
G1 X-14.068S1000
G1 X-0.24S0
G1 X0.075Y0.1S0
G1 X0.24S0
G1 X13.918S1000
G1 X0.24S0
G1 X-0.075Y0.1S0
G1 X-0.24S0
G1 X-13.768S1000
G1 X-0.24S0
G1 X0.075Y0.1S0
G1 X0.24S0
G1 X13.618S1000
G1 X0.24S0
G1 X-0.074Y0.1S0
G1 X-0.24S0
G1 X-13.47S1000
G1 X-0.24S0
G1 X0.081Y0.1S0
G1 X0.24S0
G1 X13.308S1000
G1 X0.24S0
G1 X-0.091Y0.1S0
G1 X-0.24S0
G1 X-13.126S1000
G1 X-0.24S0
G1 X0.091Y0.1S0
G1 X0.24S0
G1 X12.944S1000
G1 X0.24S0
G1 X-0.091Y0.1S0
G1 X-0.24S0
G1 X-12.762S1000
G1 X-0.24S0
G1 X0.091Y0.1S0
G1 X0.24S0
G1 X12.58S1000
G1 X0.24S0
G1 X-0.091Y0.1S0
G1 X-0.24S0
G1 X-12.398S1000
G1 X-0.24S0
G1 X0.095Y0.1S0
G1 X0.24S0
G1 X12.208S1000
G1 X0.24S0
G1 X-0.11Y0.1S0
G1 X-0.24S0
G1 X-11.988S1000
G1 X-0.24S0
G1 X0.11Y0.1S0
G1 X0.24S0
G1 X11.768S1000
G1 X0.24S0
G1 X-0.11Y0.1S0
G1 X-0.24S0
G1 X-11.548S1000
G1 X-0.24S0
G1 X0.11Y0.1S0
G1 X0.24S0
G1 X11.328S1000
G1 X0.24S0
G1 X-0.11Y0.1S0
G1 X-0.24S0
G1 X-11.108S1000
G1 X-0.24S0
G1 X0.125Y0.1S0
G1 X0.24S0
G1 X10.858S1000
G1 X0.24S0
G1 X-0.133Y0.1S0
G1 X-0.24S0
G1 X-10.592S1000
G1 X-0.24S0
G1 X0.134Y0.1S0
G1 X0.24S0
G1 X10.324S1000
G1 X0.24S0
G1 X-0.134Y0.1S0
G1 X-0.24S0
G1 X-10.056S1000
G1 X-0.24S0
G1 X0.134Y0.1S0
G1 X0.24S0
G1 X9.788S1000
G1 X0.24S0
G1 X-0.153Y0.1S0
G1 X-0.24S0
G1 X-9.482S1000
G1 X-0.24S0
G1 X0.164Y0.1S0
G1 X0.24S0
G1 X9.154S1000
G1 X0.24S0
G1 X-0.165Y0.1S0
G1 X-0.24S0
G1 X-8.824S1000
G1 X-0.24S0
G1 X0.165Y0.1S0
G1 X0.24S0
G1 X8.494S1000
G1 X0.24S0
G1 X-0.177Y0.1S0
G1 X-0.24S0
G1 X-8.14S1000
G1 X-0.24S0
G1 X0.207Y0.1S0
G1 X0.24S0
G1 X7.726S1000
G1 X0.24S0
G1 X-0.208Y0.1S0
G1 X-0.24S0
G1 X-7.31S1000
G1 X-0.24S0
G1 X0.208Y0.1S0
G1 X0.24S0
G1 X6.894S1000
G1 X0.24S0
G1 X-0.249Y0.1S0
G1 X-0.24S0
G1 X-6.396S1000
G1 X-0.239S0
G1 X0.273Y0.1S0
G1 X0.24S0
G1 X5.848S1000
G1 X0.24S0
G1 X-0.273Y0.1S0
G1 X-0.24S0
G1 X-5.302S1000
G1 X-0.24S0
G1 X0.358Y0.1S0
G1 X0.24S0
G1 X4.586S1000
G1 X0.24S0
G1 X-0.388Y0.1S0
G1 X-0.24S0
G1 X-3.81S1000
G1 X-0.24S0
G1 X0.548Y0.1S0
G1 X0.24S0
G1 X2.714S1000
G1 X0.24S0
G1 X-1.027Y0.1S0
G1 X-0.24S0
G1 X-0.66S1000
G1 X-0.24S0
G90
G0 X83.209Y34.518
G91
G1 X0.24S0
G1 X0.866S1000
G1 X0.24S0
G1 X0.322Y0.1S0
G1 X-0.24S0
G1 X-1.51S1000
G1 X-0.24S0
G1 X-0.195Y0.1S0
G1 X0.24S0
G1 X1.899S1000
G1 X0.24S0
G1 X0.179Y0.1S0
G1 X-0.24S0
G1 X-2.257S1000
G1 X-0.24S0
G1 X-0.121Y0.1S0
G1 X0.24S0
G1 X2.5S1000
G1 X0.24S0
G1 X0.121Y0.1S0
G1 X-0.24S0
G1 X-2.742S1000
G1 X-0.24S0
G1 X-0.096Y0.1S0
G1 X0.24S0
G1 X2.934S1000
G1 X0.24S0
G1 X0.083Y0.1S0
G1 X-0.24S0
G1 X-3.1S1000
G1 X-0.24S0
G1 X-0.082Y0.1S0
G1 X0.24S0
G1 X3.264S1000
G1 X0.24S0
G1 X0.063Y0.1S0
G1 X-0.24S0
G1 X-3.391S1000
G1 X-0.24S0
G1 X-0.054Y0.1S0
G1 X0.24S0
G1 X3.5S1000
G1 X0.24S0
G1 X0.054Y0.1S0
G1 X-0.24S0
G1 X-3.608S1000
G1 X-0.24S0
G1 X-0.048Y0.1S0
G1 X0.24S0
G1 X3.704S1000
G1 X0.24S0
G1 X0.031Y0.1S0
G1 X-0.24S0
G1 X-3.766S1000
G1 X-0.24S0
G1 X-0.031Y0.1S0
G1 X0.24S0
G1 X3.828S1000
G1 X0.24S0
G1 X0.031Y0.1S0
G1 X-0.24S0
G1 X-3.89S1000
G1 X-0.24S0
G1 X-0.02Y0.1S0
G1 X0.24S0
G1 X3.93S1000
G1 X0.24S0
G1 X0.01Y0.1S0
G1 X-0.24S0
G1 X-3.95S1000
G1 X-0.24S0
G1 X-0.01Y0.1S0
G1 X0.24S0
G1 X3.97S1000
G1 X0.24S0
G1 X0.01Y0.1S0
G1 X-0.24S0
G1 X-3.99S1000
G1 X-0.24S0
G1 Y0.1S0
G1 X0.24S0
G1 X3.99S1000
G1 X0.24S0
G1 X-0.01Y0.1S0
G1 X-0.24S0
G1 X-3.97S1000
G1 X-0.24S0
G1 X0.01Y0.1S0
G1 X0.24S0
G1 X3.95S1000
G1 X0.24S0
G1 X-0.01Y0.1S0
G1 X-0.24S0
G1 X-3.93S1000
G1 X-0.24S0
G1 X0.02Y0.1S0
G1 X0.24S0
G1 X3.89S1000
G1 X0.24S0
G1 X-0.031Y0.1S0
G1 X-0.24S0
G1 X-3.828S1000
G1 X-0.24S0
G1 X0.031Y0.1S0
G1 X0.24S0
G1 X3.766S1000
G1 X0.24S0
G1 X-0.031Y0.1S0
G1 X-0.24S0
G1 X-3.704S1000
G1 X-0.24S0
G1 X0.048Y0.1S0
G1 X0.24S0
G1 X3.608S1000
G1 X0.24S0
G1 X-0.054Y0.1S0
G1 X-0.24S0
G1 X-3.5S1000
G1 X-0.24S0
G1 X0.054Y0.1S0
G1 X0.24S0
G1 X3.391S1000
G1 X0.24S0
G1 X-0.063Y0.1S0
G1 X-0.24S0
G1 X-3.264S1000
G1 X-0.24S0
G1 X0.082Y0.1S0
G1 X0.24S0
G1 X3.1S1000
G1 X0.24S0
G1 X-0.083Y0.1S0
G1 X-0.24S0
G1 X-2.934S1000
G1 X-0.24S0
G1 X0.096Y0.1S0
G1 X0.24S0
G1 X2.742S1000
G1 X0.24S0
G1 X-0.121Y0.1S0
G1 X-0.24S0
G1 X-2.5S1000
G1 X-0.24S0
G1 X0.121Y0.1S0
G1 X0.241S0
G1 X2.256S1000
G1 X0.24S0
G1 X-0.179Y0.1S0
G1 X-0.24S0
G1 X-1.899S1000
G1 X-0.24S0
G1 X0.195Y0.1S0
G1 X0.24S0
G1 X1.51S1000
G1 X0.24S0
G1 X-0.322Y0.1S0
G1 X-0.24S0
G1 X-0.866S1000
G1 X-0.24S0
G90
G0 X41.055Y90.555
G91
G1 X0.24S0
G1 X117.41S1000
G1 X0.24S0
G1 Y0.1S0
G1 X-0.24S0
G1 X-117.41S1000
G1 X-0.24S0
G1 Y0.1S0
G1 X0.24S0
G1 X117.41S1000
G1 X0.24S0
G1 Y0.1S0
G1 X-0.24S0
G1 X-117.41S1000
G1 X-0.24S0
G1 Y0.1S0
G1 X0.24S0
G1 X117.41S1000
G1 X0.24S0
G1 Y0.1S0
G1 X-0.24S0
G1 X-117.41S1000
G1 X-0.24S0
G1 Y0.1S0
G1 X0.24S0
G1 X117.41S1000
G1 X0.24S0
G1 Y0.1S0
G1 X-0.24S0
G1 X-117.41S1000
G1 X-0.24S0
G1 Y0.1S0
G1 X0.24S0
G1 X117.41S1000
G1 X0.24S0
G1 Y0.1S0
G1 X-0.24S0
G1 X-117.41S1000
G1 X-0.24S0
G1 Y0.1S0
G1 X0.24S0
G1 X117.41S1000
G1 X0.24S0
G1 Y0.1S0
G1 X-0.24S0
G1 X-117.41S1000
G1 X-0.24S0
G1 Y0.1S0
G1 X0.24S0
G1 X117.41S1000
G1 X0.24S0
G1 Y0.1S0
G1 X-0.24S0
G1 X-117.41S1000
G1 X-0.24S0
G1 Y0.1S0
G1 X0.24S0
G1 X117.41S1000
G1 X0.24S0
G1 Y0.1S0
G1 X-0.24S0
G1 X-117.41S1000
G1 X-0.24S0
G1 Y0.1S0
G1 X0.24S0
G1 X117.41S1000
G1 X0.24S0
G1 Y0.1S0
G1 X-0.24S0
G1 X-117.41S1000
G1 X-0.24S0
G1 Y0.1S0
G1 X0.24S0
G1 X117.41S1000
G1 X0.24S0
G1 Y0.1S0
G1 X-0.24S0
G1 X-117.41S1000
G1 X-0.24S0
G1 Y0.1S0
G1 X0.24S0
G1 X117.41S1000
G1 X0.24S0
G1 Y0.1S0
G1 X-0.24S0
G1 X-117.41S1000
G1 X-0.24S0
G1 Y0.1S0
G1 X0.24S0
G1 X117.41S1000
G1 X0.24S0
G1 Y0.1S0
G1 X-0.24S0
G1 X-117.41S1000
G1 X-0.24S0
G1 Y0.1S0
G1 X0.24S0
G1 X117.41S1000
G1 X0.24S0
G1 Y0.1S0
G1 X-0.24S0
G1 X-117.41S1000
G1 X-0.24S0
G1 Y0.1S0
G1 X0.24S0
G1 X117.41S1000
G1 X0.24S0
G1 Y0.1S0
G1 X-0.24S0
G1 X-117.41S1000
G1 X-0.24S0
G1 Y0.1S0
G1 X0.24S0
G1 X117.41S1000
G1 X0.24S0
G1 Y0.1S0
G1 X-0.24S0
G1 X-117.41S1000
G1 X-0.24S0
G1 Y0.1S0
G1 X0.24S0
G1 X117.41S1000
G1 X0.24S0
G1 Y0.1S0
G1 X-0.24S0
G1 X-117.41S1000
G1 X-0.24S0
G1 Y0.1S0
G1 X0.24S0
G1 X117.41S1000
G1 X0.24S0
G1 Y0.1S0
G1 X-0.24S0
G1 X-117.41S1000
G1 X-0.24S0
G1 Y0.1S0
G1 X0.24S0
G1 X117.41S1000
G1 X0.24S0
G1 Y0.1S0
G1 X-0.24S0
G1 X-117.41S1000
G1 X-0.24S0
G1 Y0.1S0
G1 X0.24S0
G1 X117.41S1000
G1 X0.24S0
G1 Y0.1S0
G1 X-0.24S0
G1 X-117.41S1000
G1 X-0.24S0
G1 Y0.1S0
G1 X0.24S0
G1 X117.41S1000
G1 X0.24S0
G1 Y0.1S0
G1 X-0.24S0
G1 X-117.41S1000
G1 X-0.24S0
G1 Y0.1S0
G1 X0.24S0
G1 X117.41S1000
G1 X0.24S0
G1 Y0.1S0
G1 X-0.24S0
G1 X-117.41S1000
G1 X-0.24S0
G1 Y0.1S0
G1 X0.24S0
G1 X117.41S1000
G1 X0.24S0
G1 Y0.1S0
G1 X-0.24S0
G1 X-117.41S1000
G1 X-0.24S0
G1 Y0.1S0
G1 X0.24S0
G1 X117.41S1000
G1 X0.24S0
G1 Y0.1S0
G1 X-0.24S0
G1 X-117.41S1000
G1 X-0.24S0
G1 Y0.1S0
G1 X0.24S0
G1 X117.41S1000
G1 X0.24S0
G1 Y0.1S0
G1 X-0.24S0
G1 X-117.41S1000
G1 X-0.24S0
G1 Y0.1S0
G1 X0.24S0
G1 X117.41S1000
G1 X0.24S0
G1 Y0.1S0
G1 X-0.24S0
G1 X-117.41S1000
G1 X-0.24S0
G1 Y0.1S0
G1 X0.24S0
G1 X117.41S1000
G1 X0.24S0
G1 Y0.1S0
G1 X-0.24S0
G1 X-117.41S1000
G1 X-0.24S0
G1 Y0.1S0
G1 X0.24S0
G1 X117.41S1000
G1 X0.24S0
G1 Y0.1S0
G1 X-0.24S0
G1 X-117.41S1000
G1 X-0.24S0
G1 Y0.1S0
G1 X0.24S0
G1 X117.41S1000
G1 X0.24S0
G1 Y0.1S0
G1 X-0.24S0
G1 X-117.41S1000
G1 X-0.24S0
G1 Y0.1S0
G1 X0.24S0
G1 X117.41S1000
G1 X0.24S0
G1 Y0.1S0
G1 X-0.24S0
G1 X-117.41S1000
G1 X-0.24S0
G1 Y0.1S0
G1 X0.24S0
G1 X6.031S1000
G1 X105.348S0
G1 X6.031S1000
G1 X0.24S0
G1 Y0.1S0
G1 X-0.24S0
G1 X-6.031S1000
G1 X-105.348S0
G1 X-6.031S1000
G1 X-0.24S0
G1 Y0.1S0
G1 X0.24S0
G1 X6.031S1000
G1 X105.348S0
G1 X6.031S1000
G1 X0.24S0
G1 Y0.1S0
G1 X-0.24S0
G1 X-6.031S1000
G1 X-105.348S0
G1 X-6.031S1000
G1 X-0.24S0
G1 Y0.1S0
G1 X0.24S0
G1 X6.031S1000
G1 X105.348S0
G1 X6.031S1000
G1 X0.24S0
G1 Y0.1S0
G1 X-0.24S0
G1 X-6.031S1000
G1 X-105.348S0
G1 X-6.031S1000
G1 X-0.24S0
G1 Y0.1S0
G1 X0.24S0
G1 X6.031S1000
G1 X105.348S0
G1 X6.031S1000
G1 X0.24S0
G1 Y0.1S0
G1 X-0.24S0
G1 X-6.031S1000
G1 X-105.348S0
G1 X-6.031S1000
G1 X-0.24S0
G1 Y0.1S0
G1 X0.24S0
G1 X6.031S1000
G1 X105.348S0
G1 X6.031S1000
G1 X0.24S0
G1 Y0.1S0
G1 X-0.24S0
G1 X-6.031S1000
G1 X-105.348S0
G1 X-6.031S1000
G1 X-0.24S0
G1 Y0.1S0
G1 X0.24S0
G1 X6.031S1000
G1 X105.348S0
G1 X6.031S1000
G1 X0.24S0
G1 Y0.1S0
G1 X-0.24S0
G1 X-6.031S1000
G1 X-105.348S0
G1 X-6.031S1000
G1 X-0.24S0
G1 Y0.1S0
G1 X0.24S0
G1 X6.031S1000
G1 X105.348S0
G1 X6.031S1000
G1 X0.24S0
G1 Y0.1S0
G1 X-0.24S0
G1 X-6.031S1000
G1 X-105.348S0
G1 X-6.031S1000
G1 X-0.24S0
G1 Y0.1S0
G1 X0.24S0
G1 X6.031S1000
G1 X105.348S0
G1 X6.031S1000
G1 X0.24S0
G1 Y0.1S0
G1 X-0.24S0
G1 X-6.031S1000
G1 X-105.348S0
G1 X-6.031S1000
G1 X-0.24S0
G1 Y0.1S0
G1 X0.24S0
G1 X6.031S1000
G1 X105.348S0
G1 X6.031S1000
G1 X0.24S0
G1 Y0.1S0
G1 X-0.24S0
G1 X-6.031S1000
G1 X-105.348S0
G1 X-6.031S1000
G1 X-0.24S0
G1 Y0.1S0
G1 X0.24S0
G1 X6.031S1000
G1 X105.348S0
G1 X6.031S1000
G1 X0.24S0
G1 Y0.1S0
G1 X-0.24S0
G1 X-6.031S1000
G1 X-105.348S0
G1 X-6.031S1000
G1 X-0.24S0
G1 Y0.1S0
G1 X0.24S0
G1 X6.031S1000
G1 X105.348S0
G1 X6.031S1000
G1 X0.24S0
G1 Y0.1S0
G1 X-0.24S0
G1 X-6.031S1000
G1 X-105.348S0
G1 X-6.031S1000
G1 X-0.24S0
G1 Y0.1S0
G1 X0.24S0
G1 X6.031S1000
G1 X105.348S0
G1 X6.031S1000
G1 X0.24S0
G1 Y0.1S0
G1 X-0.24S0
G1 X-6.031S1000
G1 X-105.348S0
G1 X-6.031S1000
G1 X-0.24S0
G1 Y0.1S0
G1 X0.24S0
G1 X6.031S1000
G1 X105.348S0
G1 X6.031S1000
G1 X0.24S0
G1 Y0.1S0
G1 X-0.24S0
G1 X-6.031S1000
G1 X-105.348S0
G1 X-6.031S1000
G1 X-0.24S0
G1 Y0.1S0
G1 X0.24S0
G1 X6.031S1000
G1 X105.348S0
G1 X6.031S1000
G1 X0.24S0
G1 Y0.1S0
G1 X-0.24S0
G1 X-6.031S1000
G1 X-105.348S0
G1 X-6.031S1000
G1 X-0.24S0
G1 Y0.1S0
G1 X0.24S0
G1 X6.031S1000
G1 X105.348S0
G1 X6.031S1000
G1 X0.24S0
G1 Y0.1S0
G1 X-0.24S0
G1 X-6.031S1000
G1 X-105.348S0
G1 X-6.031S1000
G1 X-0.24S0
G1 Y0.1S0
G1 X0.24S0
G1 X6.031S1000
G1 X105.348S0
G1 X6.031S1000
G1 X0.24S0
G1 Y0.1S0
G1 X-0.24S0
G1 X-6.031S1000
G1 X-105.348S0
G1 X-6.031S1000
G1 X-0.24S0
G1 Y0.1S0
G1 X0.24S0
G1 X6.031S1000
G1 X105.348S0
G1 X6.031S1000
G1 X0.24S0
G1 Y0.1S0
G1 X-0.24S0
G1 X-6.031S1000
G1 X-105.348S0
G1 X-6.031S1000
G1 X-0.24S0
G1 Y0.1S0
G1 X0.24S0
G1 X6.031S1000
G1 X105.348S0
G1 X6.031S1000
G1 X0.24S0
G1 Y0.1S0
G1 X-0.24S0
G1 X-6.031S1000
G1 X-105.348S0
G1 X-6.031S1000
G1 X-0.24S0
G1 Y0.1S0
G1 X0.24S0
G1 X6.031S1000
G1 X105.348S0
G1 X6.031S1000
G1 X0.24S0
G1 Y0.1S0
G1 X-0.24S0
G1 X-6.031S1000
G1 X-105.348S0
G1 X-6.031S1000
G1 X-0.24S0
G1 Y0.1S0
G1 X0.24S0
G1 X6.031S1000
G1 X105.348S0
G1 X6.031S1000
G1 X0.24S0
G1 Y0.1S0
G1 X-0.24S0
G1 X-6.031S1000
G1 X-105.348S0
G1 X-6.031S1000
G1 X-0.24S0
G1 Y0.1S0
G1 X0.24S0
G1 X6.031S1000
G1 X105.348S0
G1 X6.031S1000
G1 X0.24S0
G1 Y0.1S0
G1 X-0.24S0
G1 X-6.031S1000
G1 X-105.348S0
G1 X-6.031S1000
G1 X-0.24S0
G1 Y0.1S0
G1 X0.24S0
G1 X6.031S1000
G1 X105.348S0
G1 X6.031S1000
G1 X0.24S0
G1 Y0.1S0
G1 X-0.24S0
G1 X-6.031S1000
G1 X-105.348S0
G1 X-6.031S1000
G1 X-0.24S0
G1 Y0.1S0
G1 X0.24S0
G1 X6.031S1000
G1 X105.348S0
G1 X6.031S1000
G1 X0.24S0
G1 Y0.1S0
G1 X-0.24S0
G1 X-6.031S1000
G1 X-105.348S0
G1 X-6.031S1000
G1 X-0.24S0
G1 Y0.1S0
G1 X0.24S0
G1 X6.031S1000
G1 X105.348S0
G1 X6.031S1000
G1 X0.24S0
G1 Y0.1S0
G1 X-0.24S0
G1 X-6.031S1000
G1 X-105.348S0
G1 X-6.031S1000
G1 X-0.24S0
G1 Y0.1S0
G1 X0.24S0
G1 X6.031S1000
G1 X105.348S0
G1 X6.031S1000
G1 X0.24S0
G1 Y0.1S0
G1 X-0.24S0
G1 X-6.031S1000
G1 X-105.348S0
G1 X-6.031S1000
G1 X-0.24S0
G1 Y0.1S0
G1 X0.24S0
G1 X6.031S1000
G1 X105.348S0
G1 X6.031S1000
G1 X0.24S0
G1 Y0.1S0
G1 X-0.24S0
G1 X-6.031S1000
G1 X-105.348S0
G1 X-6.031S1000
G1 X-0.24S0
G1 Y0.1S0
G1 X0.24S0
G1 X6.031S1000
G1 X105.348S0
G1 X6.031S1000
G1 X0.24S0
G1 Y0.1S0
G1 X-0.24S0
G1 X-6.031S1000
G1 X-105.348S0
G1 X-6.031S1000
G1 X-0.24S0
G1 Y0.1S0
G1 X0.24S0
G1 X6.031S1000
G1 X105.348S0
G1 X6.031S1000
G1 X0.24S0
G1 Y0.1S0
G1 X-0.24S0
G1 X-6.031S1000
G1 X-105.348S0
G1 X-6.031S1000
G1 X-0.24S0
G1 Y0.1S0
G1 X0.24S0
G1 X6.031S1000
G1 X105.348S0
G1 X6.031S1000
G1 X0.24S0
G1 Y0.1S0
G1 X-0.24S0
G1 X-6.031S1000
G1 X-105.348S0
G1 X-6.031S1000
G1 X-0.24S0
G1 Y0.1S0
G1 X0.24S0
G1 X6.031S1000
G1 X105.348S0
G1 X6.031S1000
G1 X0.24S0
G1 Y0.1S0
G1 X-0.24S0
G1 X-6.031S1000
G1 X-105.348S0
G1 X-6.031S1000
G1 X-0.24S0
G1 Y0.1S0
G1 X0.24S0
G1 X6.031S1000
G1 X105.348S0
G1 X6.031S1000
G1 X0.24S0
G1 Y0.1S0
G1 X-0.24S0
G1 X-6.031S1000
G1 X-105.348S0
G1 X-6.031S1000
G1 X-0.24S0
G1 Y0.1S0
G1 X0.24S0
G1 X6.031S1000
G1 X105.348S0
G1 X6.031S1000
G1 X0.24S0
G1 Y0.1S0
G1 X-0.24S0
G1 X-6.031S1000
G1 X-105.348S0
G1 X-6.031S1000
G1 X-0.24S0
G1 Y0.1S0
G1 X0.24S0
G1 X6.031S1000
G1 X105.348S0
G1 X6.031S1000
G1 X0.24S0
G1 Y0.1S0
G1 X-0.24S0
G1 X-6.031S1000
G1 X-105.348S0
G1 X-6.031S1000
G1 X-0.24S0
G1 Y0.1S0
G1 X0.24S0
G1 X6.031S1000
G1 X105.348S0
G1 X6.031S1000
G1 X0.24S0
G1 Y0.1S0
G1 X-0.24S0
G1 X-6.031S1000
G1 X-105.348S0
G1 X-6.031S1000
G1 X-0.24S0
G1 Y0.1S0
G1 X0.24S0
G1 X6.031S1000
G1 X105.348S0
G1 X6.031S1000
G1 X0.24S0
G1 Y0.1S0
G1 X-0.24S0
G1 X-6.031S1000
G1 X-105.348S0
G1 X-6.031S1000
G1 X-0.24S0
G1 Y0.1S0
G1 X0.24S0
G1 X6.031S1000
G1 X105.348S0
G1 X6.031S1000
G1 X0.24S0
G1 Y0.1S0
G1 X-0.24S0
G1 X-6.031S1000
G1 X-105.348S0
G1 X-6.031S1000
G1 X-0.24S0
G1 Y0.1S0
G1 X0.24S0
G1 X6.031S1000
G1 X105.348S0
G1 X6.031S1000
G1 X0.24S0
G1 Y0.1S0
G1 X-0.24S0
G1 X-6.031S1000
G1 X-105.348S0
G1 X-6.031S1000
G1 X-0.24S0
G1 Y0.1S0
G1 X0.24S0
G1 X6.031S1000
G1 X105.348S0
G1 X6.031S1000
G1 X0.24S0
G1 Y0.1S0
G1 X-0.24S0
G1 X-6.031S1000
G1 X-105.348S0
G1 X-6.031S1000
G1 X-0.24S0
G1 Y0.1S0
G1 X0.24S0
G1 X6.031S1000
G1 X105.348S0
G1 X6.031S1000
G1 X0.24S0
G1 Y0.1S0
G1 X-0.24S0
G1 X-6.031S1000
G1 X-105.348S0
G1 X-6.031S1000
G1 X-0.24S0
G1 Y0.1S0
G1 X0.24S0
G1 X6.031S1000
G1 X105.348S0
G1 X6.031S1000
G1 X0.24S0
G1 Y0.1S0
G1 X-0.24S0
G1 X-6.031S1000
G1 X-105.348S0
G1 X-6.031S1000
G1 X-0.24S0
G1 Y0.1S0
G1 X0.24S0
G1 X6.031S1000
G1 X105.348S0
G1 X6.031S1000
G1 X0.24S0
G1 Y0.1S0
G1 X-0.24S0
G1 X-6.031S1000
G1 X-105.348S0
G1 X-6.031S1000
G1 X-0.24S0
G1 Y0.1S0
G1 X0.24S0
G1 X6.031S1000
G1 X105.348S0
G1 X6.031S1000
G1 X0.24S0
G1 Y0.1S0
G1 X-0.24S0
G1 X-6.031S1000
G1 X-105.348S0
G1 X-6.031S1000
G1 X-0.24S0
G1 Y0.1S0
G1 X0.24S0
G1 X6.031S1000
G1 X105.348S0
G1 X6.031S1000
G1 X0.24S0
G1 Y0.1S0
G1 X-0.24S0
G1 X-6.031S1000
G1 X-105.348S0
G1 X-6.031S1000
G1 X-0.24S0
G1 Y0.1S0
G1 X0.24S0
G1 X6.031S1000
G1 X105.348S0
G1 X6.031S1000
G1 X0.24S0
G1 Y0.1S0
G1 X-0.24S0
G1 X-6.031S1000
G1 X-105.348S0
G1 X-6.031S1000
G1 X-0.24S0
G1 Y0.1S0
G1 X0.24S0
G1 X6.031S1000
G1 X105.348S0
G1 X6.031S1000
G1 X0.24S0
G1 Y0.1S0
G1 X-0.24S0
G1 X-6.031S1000
G1 X-105.348S0
G1 X-6.031S1000
G1 X-0.24S0
G1 Y0.1S0
G1 X0.24S0
G1 X6.031S1000
G1 X105.348S0
G1 X6.031S1000
G1 X0.24S0
G1 Y0.1S0
G1 X-0.24S0
G1 X-6.031S1000
G1 X-105.348S0
G1 X-6.031S1000
G1 X-0.24S0
G1 Y0.1S0
G1 X0.24S0
G1 X6.031S1000
G1 X105.348S0
G1 X6.031S1000
G1 X0.24S0
G1 Y0.1S0
G1 X-0.24S0
G1 X-6.031S1000
G1 X-105.348S0
G1 X-6.031S1000
G1 X-0.24S0
G1 Y0.1S0
G1 X0.24S0
G1 X6.031S1000
G1 X105.348S0
G1 X6.031S1000
G1 X0.24S0
G1 Y0.1S0
G1 X-0.24S0
G1 X-6.031S1000
G1 X-105.348S0
G1 X-6.031S1000
G1 X-0.24S0
G1 Y0.1S0
G1 X0.24S0
G1 X6.031S1000
G1 X105.348S0
G1 X6.031S1000
G1 X0.24S0
G1 Y0.1S0
G1 X-0.24S0
G1 X-6.031S1000
G1 X-105.348S0
G1 X-6.031S1000
G1 X-0.24S0
G1 Y0.1S0
G1 X0.24S0
G1 X6.031S1000
G1 X52.09S0
G1 X0.948S1000
G1 X52.31S0
G1 X6.031S1000
G1 X0.24S0
G1 Y0.1S0
G1 X-0.24S0
G1 X-6.031S1000
G1 X-52.13S0
G1 X-1.128S1000
G1 X-52.09S0
G1 X-6.031S1000
G1 X-0.24S0
G1 Y0.1S0
G1 X0.24S0
G1 X6.031S1000
G1 X52.09S0
G1 X1.246S1000
G1 X52.012S0
G1 X6.031S1000
G1 X0.24S0
G1 Y0.1S0
G1 X-0.24S0
G1 X-6.031S1000
G1 X-51.927S0
G1 X-1.331S1000
G1 X-52.09S0
G1 X-6.031S1000
G1 X-0.24S0
G1 Y0.1S0
G1 X0.24S0
G1 X6.031S1000
G1 X52.09S0
G1 X1.387S1000
G1 X51.871S0
G1 X6.031S1000
G1 X0.24S0
G1 Y0.1S0
G1 X-0.24S0
G1 X-6.031S1000
G1 X-51.823S0
G1 X-0.854S1000
G1 X-52.671S0
G1 X-6.031S1000
G1 X-0.24S0
G1 Y0.1S0
G1 X0.24S0
G1 X6.031S1000
G1 X52.801S0
G1 X0.751S1000
G1 X51.796S0
G1 X6.031S1000
G1 X0.24S0
G1 Y0.1S0
G1 X-0.24S0
G1 X-6.031S1000
G1 X-51.772S0
G1 X-0.706S1000
G1 X-52.87S0
G1 X-6.031S1000
G1 X-0.24S0
G1 Y0.1S0
G1 X0.24S0
G1 X6.031S1000
G1 X52.907S0
G1 X0.682S1000
G1 X51.759S0
G1 X6.031S1000
G1 X0.24S0
G1 Y0.1S0
G1 X-0.24S0
G1 X-6.031S1000
G1 X-51.752S0
G1 X-0.67S1000
G1 X-52.926S0
G1 X-6.031S1000
G1 X-0.24S0
G1 Y0.1S0
G1 X0.24S0
G1 X6.031S1000
G1 X52.933S0
G1 X0.67S1000
G1 X51.745S0
G1 X6.031S1000
G1 X0.24S0
G1 Y0.1S0
G1 X-0.24S0
G1 X-6.031S1000
G1 X-51.744S0
G1 X-0.67S1000
G1 X-52.934S0
G1 X-6.031S1000
G1 X-0.24S0
G1 Y0.1S0
G1 X0.24S0
G1 X6.031S1000
G1 X39.065S0
G1 X1.183S1000
G1 X8.513S0
G1 X0.8S1000
G1 X3.373S0
G1 X0.67S1000
G1 X3.053S0
G1 X0.995S1000
G1 X12.43S0
G1 X0.995S1000
G1 X34.271S0
G1 X6.031S1000
G1 X0.24S0
G1 Y0.1S0
G1 X-0.24S0
G1 X-6.031S1000
G1 X-30.777S0
G1 X-0.8S1000
G1 X-2.315S0
G1 X-1.734S1000
G1 X-2.589S0
G1 X-0.67S1000
G1 X-2.41S0
G1 X-0.661S1000
G1 X-2.41S0
G1 X-0.67S1000
G1 X-2.281S0
G1 X-1.733S1000
G1 X-2.694S0
G1 X-0.67S1000
G1 X-1.566S0
G1 X-0.662S1000
G1 X-0.786S0
G1 X-1.507S1000
G1 X-1.805S0
G1 X-0.801S1000
G1 X-2.487S0
G1 X-0.67S1000
G1 X-1.953S0
G1 X-2.065S1000
G1 X-5.148S0
G1 X-2.708S1000
G1 X-30.776S0
G1 X-6.031S1000
G1 X-0.24S0
G1 Y0.1S0
G1 X0.24S0
G1 X6.031S1000
G1 X30.776S0
G1 X3.174S1000
G1 X4.453S0
G1 X2.622S1000
G1 X1.625S0
G1 X0.67S1000
G1 X2.407S0
G1 X0.801S1000
G1 X1.69S0
G1 X1.888S1000
G1 X0.6S0
G1 X0.662S1000
G1 X1.566S0
G1 X0.67S1000
G1 X2.465S0
G1 X2.187S1000
G1 X2.056S0
G1 X0.67S1000
G1 X2.41S0
G1 X0.661S1000
G1 X2.41S0
G1 X0.67S1000
G1 X2.36S0
G1 X2.187S1000
G1 X2.091S0
G1 X0.8S1000
G1 X30.777S0
G1 X6.031S1000
G1 X0.24S0
G1 Y0.1S0
G1 X-0.24S0
G1 X-6.031S1000
G1 X-30.777S0
G1 X-0.8S1000
G1 X-1.918S0
G1 X-2.535S1000
G1 X-2.185S0
G1 X-0.67S1000
G1 X-2.41S0
G1 X-0.661S1000
G1 X-2.41S0
G1 X-0.67S1000
G1 X-1.884S0
G1 X-2.535S1000
G1 X-2.289S0
G1 X-0.67S1000
G1 X-1.566S0
G1 X-0.662S1000
G1 X-0.465S0
G1 X-2.174S1000
G1 X-1.618S0
G1 X-0.803S1000
G1 X-2.326S0
G1 X-0.67S1000
G1 X-1.352S0
G1 X-3.113S1000
G1 X-3.941S0
G1 X-3.468S1000
G1 X-30.776S0
G1 X-6.031S1000
G1 X-0.24S0
G1 Y0.1S0
G1 X0.24S0
G1 X6.031S1000
G1 X30.776S0
G1 X3.704S1000
G1 X3.568S0
G1 X3.335S1000
G1 X1.267S0
G1 X0.67S1000
G1 X2.246S0
G1 X0.803S1000
G1 X1.574S0
G1 X2.416S1000
G1 X0.347S0
G1 X0.662S1000
G1 X1.566S0
G1 X0.67S1000
G1 X2.145S0
G1 X2.823S1000
G1 X1.74S0
G1 X0.67S1000
G1 X2.41S0
G1 X0.661S1000
G1 X2.41S0
G1 X0.67S1000
G1 X2.041S0
G1 X2.823S1000
G1 X1.774S0
G1 X0.8S1000
G1 X30.777S0
G1 X6.031S1000
G1 X0.24S0
G1 Y0.1S0
G1 X-0.24S0
G1 X-6.031S1000
G1 X-30.777S0
G1 X-0.8S1000
G1 X-1.647S0
G1 X-3.074S1000
G1 X-1.917S0
G1 X-0.67S1000
G1 X-2.41S0
G1 X-0.661S1000
G1 X-2.41S0
G1 X-0.67S1000
G1 X-1.612S0
G1 X-3.075S1000
G1 X-2.021S0
G1 X-0.67S1000
G1 X-1.566S0
G1 X-0.662S1000
G1 X-0.242S0
G1 X-2.615S1000
G1 X-1.559S0
G1 X-0.804S1000
G1 X-2.166S0
G1 X-0.67S1000
G1 X-1.267S0
G1 X-3.471S1000
G1 X-3.245S0
G1 X-3.891S1000
G1 X-30.776S0
G1 X-6.031S1000
G1 X-0.24S0
G1 Y0.1S0
G1 X0.24S0
G1 X6.031S1000
G1 X30.776S0
G1 X4.058S1000
G1 X2.958S0
G1 X3.591S1000
G1 X1.267S0
G1 X0.67S1000
G1 X2.085S0
G1 X0.805S1000
G1 X1.562S0
G1 X1.18S1000
G1 X0.799S0
G1 X0.802S1000
G1 X0.153S0
G1 X0.662S1000
G1 X1.566S0
G1 X0.67S1000
G1 X1.913S0
G1 X1.078S1000
G1 X1.154S0
G1 X1.068S1000
G1 X1.495S0
G1 X0.67S1000
G1 X2.41S0
G1 X0.661S1000
G1 X2.41S0
G1 X0.67S1000
G1 X1.808S0
G1 X1.078S1000
G1 X1.155S0
G1 X1.068S1000
G1 X1.529S0
G1 X0.8S1000
G1 X30.777S0
G1 X6.031S1000
G1 X0.24S0
G1 Y0.1S0
G1 X-0.24S0
G1 X-6.031S1000
G1 X-30.777S0
G1 X-0.8S1000
G1 X-1.428S0
G1 X-0.937S1000
G1 X-1.607S0
G1 X-0.95S1000
G1 X-1.716S0
G1 X-0.67S1000
G1 X-2.41S0
G1 X-0.661S1000
G1 X-2.41S0
G1 X-0.67S1000
G1 X-1.394S0
G1 X-0.937S1000
G1 X-1.607S0
G1 X-0.95S1000
G1 X-1.82S0
G1 X-0.67S1000
G1 X-1.566S0
G1 X-0.662S1000
G1 X-0.074S0
G1 X-0.62S1000
G1 X-1.316S0
G1 X-0.998S1000
G1 X-1.567S0
G1 X-0.806S1000
G1 X-2.005S0
G1 X-0.67S1000
G1 X-1.267S0
G1 X-1.064S1000
G1 X-1.267S0
G1 X-1.356S1000
G1 X-2.712S0
G1 X-1.591S1000
G1 X-1.929S0
G1 X-0.688S1000
G1 X-30.776S0
G1 X-6.031S1000
G1 X-0.24S0
G1 Y0.1S0
G1 X0.24S0
G1 X6.031S1000
G1 X30.776S0
G1 X0.688S1000
G1 X2.355S0
G1 X1.289S1000
G1 X2.508S0
G1 X1.178S1000
G1 X1.851S0
G1 X0.738S1000
G1 X1.267S0
G1 X0.67S1000
G1 X1.925S0
G1 X0.806S1000
G1 X1.598S0
G1 X0.897S1000
G1 X1.631S0
G1 X0.527S1000
G1 X0.664
G1 X1.566S0
G1 X0.67S1000
G1 X1.74S0
G1 X0.871S1000
G1 X1.934S0
G1 X0.787S1000
G1 X1.376S0
G1 X0.67S1000
G1 X2.41S0
G1 X0.661S1000
G1 X2.41S0
G1 X0.67S1000
G1 X1.636S0
G1 X0.871S1000
G1 X1.933S0
G1 X0.787S1000
G1 X1.411S0
G1 X0.8S1000
G1 X30.777S0
G1 X6.031S1000
G1 X0.24S0
G1 Y0.1S0
G1 X-0.24S0
G1 X-6.031S1000
G1 X-30.777S0
G1 X-0.8S1000
G1 X-1.527S0
G1 X-0.517S1000
G1 X-2.223S0
G1 X-0.81S1000
G1 X-1.561S0
G1 X-0.67S1000
G1 X-2.41S0
G1 X-0.661S1000
G1 X-2.41S0
G1 X-0.67S1000
G1 X-1.493S0
G1 X-0.516S1000
G1 X-2.224S0
G1 X-0.81S1000
G1 X-1.665S0
G1 X-0.67S1000
G1 X-1.566S0
G1 X-1.067S1000
G1 X-1.869S0
G1 X-0.833S1000
G1 X-1.627S0
G1 X-0.808S1000
G1 X-1.844S0
G1 X-0.67S1000
G1 X-1.267S0
G1 X-0.495S1000
G1 X-2.266S0
G1 X-1.082S1000
G1 X-2.312S0
G1 X-1.144S1000
G1 X-2.62S0
G1 X-0.688S1000
G1 X-30.776S0
G1 X-6.031S1000
G1 X-0.24S0
G1 Y0.1S0
G1 X0.24S0
G1 X6.031S1000
G1 X30.776S0
G1 X0.688S1000
G1 X2.822S0
G1 X1.042S1000
G1 X2.153S0
G1 X0.999S1000
G1 X2.612S0
G1 X0.291S1000
G1 X1.267S0
G1 X0.67S1000
G1 X1.764S0
G1 X0.808S1000
G1 X1.661S0
G1 X0.805S1000
G1 X2.029S0
G1 X0.981S1000
G1 X1.566S0
G1 X0.67S1000
G1 X1.604S0
G1 X0.777S1000
G1 X2.436S0
G1 X0.281S1000
G1 X1.61S0
G1 X0.67S1000
G1 X2.41S0
G1 X0.661S1000
G1 X2.41S0
G1 X0.67S1000
G1 X1.499S0
G1 X0.777S1000
G1 X2.437S0
G1 X0.281S1000
G1 X33.221S0
G1 X6.031S1000
G1 X0.24S0
G1 Y0.1S0
G1 X-0.24S0
G1 X-6.031S1000
G1 X-33.338S0
G1 X-0.045S1000
G1 X-2.649S0
G1 X-0.743S1000
G1 X-1.44S0
G1 X-0.67S1000
G1 X-2.41S0
G1 X-0.661S1000
G1 X-2.41S0
G1 X-0.67S1000
G1 X-1.727S0
G1 X-0.045S1000
G1 X-2.648S0
G1 X-0.744S1000
G1 X-1.544S0
G1 X-0.67S1000
G1 X-1.566S0
G1 X-0.899S1000
G1 X-2.181S0
G1 X-0.76S1000
G1 X-1.715S0
G1 X-0.81S1000
G1 X-1.683S0
G1 X-0.67S1000
G1 X-1.267S0
G1 X-0.128S1000
G1 X-2.868S0
G1 X-0.963S1000
G1 X-1.996S0
G1 X-0.979S1000
G1 X-2.985S0
G1 X-0.688S1000
G1 X-30.776S0
G1 X-6.031S1000
G1 X-0.24S0
G1 Y0.1S0
G1 X0.24S0
G1 X6.031S1000
G1 X30.776S0
G1 X0.688S1000
G1 X3.124S0
G1 X0.921S1000
G1 X1.87S0
G1 X0.918S1000
G1 X4.353S0
G1 X0.693S1000
G1 X1.58S0
G1 X0.81S1000
G1 X1.769S0
G1 X0.74S1000
G1 X2.284S0
G1 X0.842S1000
G1 X1.566S0
G1 X0.67S1000
G1 X1.495S0
G1 X0.728S1000
G1 X4.485S0
G1 X0.67S1000
G1 X2.41S0
G1 X0.661S1000
G1 X2.41S0
G1 X0.67S1000
G1 X1.39S0
G1 X0.729S1000
G1 X36.096S0
G1 X6.031S1000
G1 X0.24S0
G1 Y0.1S0
G1 X-0.24S0
G1 X-6.031S1000
G1 X-36.16S0
G1 X-0.712S1000
G1 X-1.343S0
G1 X-0.67S1000
G1 X-2.41S0
G1 X-0.661S1000
G1 X-2.41S0
G1 X-0.67S1000
G1 X-4.549S0
G1 X-0.712S1000
G1 X-1.447S0
G1 X-0.67S1000
G1 X-1.566S0
G1 X-0.789S1000
G1 X-2.382S0
G1 X-0.72S1000
G1 X-1.823S0
G1 X-0.811S1000
G1 X-1.396S0
G1 X-0.797S1000
G1 X-4.42S0
G1 X-0.895S1000
G1 X-1.744S0
G1 X-0.886S1000
G1 X-3.241S0
G1 X-0.688S1000
G1 X-30.776S0
G1 X-6.031S1000
G1 X-0.24S0
G1 Y0.1S0
G1 X0.24S0
G1 X6.031S1000
G1 X30.776S0
G1 X0.688S1000
G1 X3.34S0
G1 X0.855S1000
G1 X1.643S0
G1 X0.873S1000
G1 X4.475S0
G1 X0.901S1000
G1 X1.211S0
G1 X0.813S1000
G1 X1.891S0
G1 X0.706S1000
G1 X2.447S0
G1 X0.749S1000
G1 X1.566S0
G1 X0.67S1000
G1 X1.412S0
G1 X0.697S1000
G1 X4.599S0
G1 X0.67S1000
G1 X2.41S0
G1 X0.661S1000
G1 X2.41S0
G1 X0.67S1000
G1 X1.307S0
G1 X0.698S1000
G1 X36.21S0
G1 X6.031S1000
G1 X0.24S0
G1 Y0.1S0
G1 X-0.24S0
G1 X-6.031S1000
G1 X-36.249S0
G1 X-0.694S1000
G1 X-1.272S0
G1 X-0.67S1000
G1 X-2.41S0
G1 X-0.661S1000
G1 X-2.41S0
G1 X-0.67S1000
G1 X-4.637S0
G1 X-0.695S1000
G1 X-1.376S0
G1 X-0.67S1000
G1 X-1.566S0
G1 X-0.719S1000
G1 X-2.501S0
G1 X-0.69S1000
G1 X-1.963S0
G1 X-0.813S1000
G1 X-1.028S0
G1 X-1.004S1000
G1 X-4.531S0
G1 X-0.849S1000
G1 X-1.547S0
G1 X-0.828S1000
G1 X-3.431S0
G1 X-0.688S1000
G1 X-30.776S0
G1 X-6.031S1000
G1 X-0.24S0
G1 Y0.1S0
G1 X0.24S0
G1 X6.031S1000
G1 X30.776S0
G1 X0.688S1000
G1 X3.508S0
G1 X0.81S1000
G1 X1.464S0
G1 X0.841S1000
G1 X4.563S0
G1 X1.108S1000
G1 X0.844S0
G1 X0.814S1000
G1 X2.034S0
G1 X0.681S1000
G1 X2.548S0
G1 X0.689S1000
G1 X1.566S0
G1 X0.67S1000
G1 X1.352S0
G1 X0.68S1000
G1 X4.676S0
G1 X0.67S1000
G1 X2.41S0
G1 X0.661S1000
G1 X2.41S0
G1 X0.67S1000
G1 X1.247S0
G1 X0.681S1000
G1 X36.287S0
G1 X6.031S1000
G1 X0.24S0
G1 Y0.1S0
G1 X-0.24S0
G1 X-6.031S1000
G1 X-36.313S0
G1 X-0.679S1000
G1 X-1.223S0
G1 X-0.67S1000
G1 X-2.41S0
G1 X-0.661S1000
G1 X-2.41S0
G1 X-0.67S1000
G1 X-4.702S0
G1 X-0.679S1000
G1 X-1.327S0
G1 X-0.67S1000
G1 X-1.566S0
G1 X-0.679S1000
G1 X-2.565S0
G1 X-0.68S1000
G1 X-2.108S0
G1 X-0.815S1000
G1 X-0.659S0
G1 X-1.212S1000
G1 X-4.592S0
G1 X-0.833S1000
G1 X-1.392S0
G1 X-0.79S1000
G1 X-3.579S0
G1 X-0.688S1000
G1 X-30.776S0
G1 X-6.031S1000
G1 X-0.24S0
G1 Y0.1S0
G1 X0.24S0
G1 X6.031S1000
G1 X30.776S0
G1 X0.688S1000
G1 X3.64S0
G1 X0.78S1000
G1 X1.322S0
G1 X0.822S1000
G1 X4.622S0
G1 X1.315S1000
G1 X0.476S0
G1 X0.816S1000
G1 X2.187S0
G1 X0.673S1000
G1 X2.581S0
G1 X0.67S1000
G1 X1.566S0
G1 X0.67S1000
G1 X1.311S0
G1 X0.677S1000
G1 X4.72S0
G1 X0.67S1000
G1 X2.41S0
G1 X0.661S1000
G1 X2.41S0
G1 X0.67S1000
G1 X1.207S0
G1 X0.677S1000
G1 X4.958S0
G1 X0.385S1000
G1 X30.988S0
G1 X6.031S1000
G1 X0.24S0
G1 Y0.1S0
G1 X-0.24S0
G1 X-6.031S1000
G1 X-30.983S0
G1 X-0.396S1000
G1 X-4.971S0
G1 X-0.672S1000
G1 X-1.193S0
G1 X-0.67S1000
G1 X-2.41S0
G1 X-0.661S1000
G1 X-2.41S0
G1 X-0.67S1000
G1 X-4.738S0
G1 X-0.673S1000
G1 X-1.297S0
G1 X-0.67S1000
G1 X-1.566S0
G1 X-0.662S1000
G1 X-2.592S0
G1 X-0.67S1000
G1 X-2.267S0
G1 X-0.816S1000
G1 X-0.292S0
G1 X-1.419S1000
G1 X-4.641S0
G1 X-0.815S1000
G1 X-1.271S0
G1 X-0.764S1000
G1 X-3.695S0
G1 X-0.688S1000
G1 X-30.776S0
G1 X-6.031S1000
G1 X-0.24S0
G1 Y0.1S0
G1 X0.24S0
G1 X6.031S1000
G1 X30.776S0
G1 X0.688S1000
G1 X3.743S0
G1 X0.754S1000
G1 X1.221S0
G1 X0.819S1000
G1 X4.649S0
G1 X0.67S1000
G1 X0.066S0
G1 X0.787S1000
G1 X0.107S0
G1 X0.818S1000
G1 X2.346S0
G1 X0.67S1000
G1 X2.592S0
G1 X0.662S1000
G1 X1.566S0
G1 X0.67S1000
G1 X1.287S0
G1 X4.241S1000
G1 X1.18S0
G1 X0.67S1000
G1 X2.41S0
G1 X0.661S1000
G1 X2.41S0
G1 X0.67S1000
G1 X1.183S0
G1 X4.241S1000
G1 X1.407S0
G1 X0.407S1000
G1 X30.977S0
G1 X6.031S1000
G1 X0.24S0
G1 Y0.1S0
G1 X-0.24S0
G1 X-6.031S1000
G1 X-30.971S0
G1 X-0.419S1000
G1 X-1.396S0
G1 X-4.25S1000
G1 X-1.179S0
G1 X-0.67S1000
G1 X-2.41S0
G1 X-0.661S1000
G1 X-2.41S0
G1 X-0.67S1000
G1 X-1.175S0
G1 X-4.25S1000
G1 X-1.283S0
G1 X-0.67S1000
G1 X-1.566S0
G1 X-0.662S1000
G1 X-2.592S0
G1 X-0.67S1000
G1 X-2.426S0
G1 X-1.531S1000
G1 X-0.167S0
G1 X-0.67S1000
G1 X-4.657S0
G1 X-0.816S1000
G1 X-1.18S0
G1 X-0.747S1000
G1 X-3.786S0
G1 X-0.688S1000
G1 X-30.776S0
G1 X-6.031S1000
G1 X-0.24S0
G1 Y0.1S0
G1 X0.24S0
G1 X6.031S1000
G1 X30.776S0
G1 X0.688S1000
G1 X3.823S0
G1 X0.736S1000
G1 X1.15S0
G1 X0.811S1000
G1 X4.666S0
G1 X0.67S1000
G1 X0.267S0
G1 X1.352S1000
G1 X2.505S0
G1 X0.67S1000
G1 X2.592S0
G1 X0.662S1000
G1 X1.566S0
G1 X0.67S1000
G1 X1.279S0
G1 X4.252S1000
G1 X1.177S0
G1 X0.67S1000
G1 X2.41S0
G1 X0.661S1000
G1 X2.41S0
G1 X0.67S1000
G1 X1.174S0
G1 X4.252S1000
G1 X1.394S0
G1 X0.429S1000
G1 X30.966S0
G1 X6.031S1000
G1 X0.24S0
G1 Y0.1S0
G1 X-0.24S0
G1 X-6.031S1000
G1 X-30.96S0
G1 X-0.441S1000
G1 X-1.395S0
G1 X-4.24S1000
G1 X-1.179S0
G1 X-0.67S1000
G1 X-2.41S0
G1 X-0.661S1000
G1 X-2.41S0
G1 X-0.67S1000
G1 X-1.185S0
G1 X-4.24S1000
G1 X-1.283S0
G1 X-0.67S1000
G1 X-1.566S0
G1 X-0.662S1000
G1 X-2.592S0
G1 X-0.67S1000
G1 X-2.585S0
G1 X-1.172S1000
G1 X-0.367S0
G1 X-0.67S1000
G1 X-1.173S0
G1 X-4.308S1000
G1 X-1.12S0
G1 X-0.728S1000
G1 X-3.857S0
G1 X-0.688S1000
G1 X-30.776S0
G1 X-6.031S1000
G1 X-0.24S0
G1 Y0.1S0
G1 X0.24S0
G1 X6.031S1000
G1 X30.776S0
G1 X0.688S1000
G1 X3.882S0
G1 X0.726S1000
G1 X1.105S0
G1 X4.3S1000
